; generated by PrusaSlicer 2.3.3+win64 on 2021-10-10 at 18:53:41 UTC


;
;

;
;
; 

; external perimeters extrusion width = 0.45mm
; perimeters extrusion width = 0.45mm
; infill extrusion width = 0.45mm
; solid infill extrusion width = 0.45mm
; top infill extrusion width = 0.40mm
; first layer extrusion width = 0.42mm

M73 P0 R84
M201 X1250 Y1250 Z400 E5000 ; sets maximum accelerations, mm/sec^2
M203 X180 Y180 Z12 E80 ; sets maximum feedrates, mm/sec
M204 P1250 R1250 T1250 ; sets acceleration (P, T) and retract acceleration (R), mm/sec^2
M205 X8.00 Y8.00 Z2.00 E10.00 ; sets the jerk limits, mm/sec
M205 S0 T0 ; sets the minimum extruding and travel feed rate, mm/sec
M107
;TYPE:Custom
G90 ; use absolute coordinates
M83 ; extruder relative mode
M104 S170 ; set extruder temp for bed leveling
M140 S105 ; set bed temp
M109 R170 ; wait for bed leveling temp
M190 S105 ; wait for bed temp
G28 ; home all without mesh bed level
G29 ; mesh bed leveling 
M104 S215 ; set extruder temp
G92 E0.0
G1 Y-2.0 X179 F2400
G1 Z3 F720
M109 S215 ; wait for extruder temp

; intro line
G1 X170 F1000
G1 Z0.2 F720
G1 X110.0 E8.0 F900
M73 P0 R83
G1 X40.0 E10.0 F700
G92 E0.0

M221 S95 ; set flow
G21 ; set units to millimeters
G90 ; use absolute coordinates
M83 ; use relative distances for extrusion
M900 K0.2 ; Filament gcode LA 1.5
; ; Filament gcode LA 1.0
;LAYER_CHANGE
;Z:0.2
;HEIGHT:0.2
;BEFORE_LAYER_CHANGE
G92 E0.0
;0.2


G1 E-3.20000 F4200.000
G1 Z0.200 F7200.000
;AFTER_LAYER_CHANGE
;0.2
G1 Z0.400
G1 X48.430 Y70.215
G1 Z0.200
G1 E3.20000 F2400.000
M204 S800
;TYPE:Skirt
;WIDTH:0.42
G1 F1200.000
G1 X48.971 Y69.857 E0.02036
G1 X49.466 Y69.684 E0.01645
G1 X49.991 Y69.623 E0.01657
G1 X130.004 Y69.623 E2.50874
G1 X130.899 Y69.799 E0.02860
G1 X131.662 Y70.300 E0.02860
G1 X132.178 Y71.048 E0.02849
G1 X132.376 Y71.938 E0.02860
G1 X132.376 Y108.084 E1.13333
G1 X132.265 Y108.720 E0.02024
G1 X131.988 Y109.303 E0.02024
G1 X131.567 Y109.787 E0.02012
G1 X131.029 Y110.143 E0.02024
G1 X130.530 Y110.317 E0.01657
G1 X130.005 Y110.377 E0.01657
G1 X49.970 Y110.377 E2.50945
G1 X49.317 Y110.277 E0.02071
G1 X48.720 Y110.003 E0.02060
G1 X48.220 Y109.576 E0.02060
G1 X47.857 Y109.029 E0.02060
G1 X47.684 Y108.534 E0.01645
G1 X47.623 Y108.016 E0.01633
G1 X47.624 Y71.931 E1.13142
G1 X47.731 Y71.291 E0.02036
G1 X48.006 Y70.707 E0.02024
G1 X48.391 Y70.261 E0.01848
M204 S1250
; printing object _LCD16x2.95a6d64c-569f-4e85-b235-adfaccf3915b v1.stl id:0 copy 0
G1 E-2.24000 F4200.000
;WIPE_START
G1 F5760.000
G1 X48.971 Y69.857 E-0.48992
G1 X49.466 Y69.684 E-0.36338
G1 X49.551 Y69.674 E-0.05870
;WIPE_END
G1 E-0.04800 F4200.000
G1 Z0.400 F7200.000
G1 X59.250 Y105.165
G1 Z0.200
G1 E3.20000 F2400.000
M204 S800
;TYPE:Perimeter
G1 F1200.000
G1 X59.270 Y105.319 E0.00486
G1 X59.290 Y105.165 E0.00486
G1 X59.419 Y104.853 E0.01059
G1 X59.625 Y104.585 E0.01059
G1 X59.893 Y104.379 E0.01059
G1 X60.205 Y104.250 E0.01059
G1 X60.494 Y104.212 E0.00913
G1 X60.863 Y104.246 E0.01164
G1 X61.187 Y104.379 E0.01098
G1 X61.455 Y104.585 E0.01059
G1 X61.661 Y104.853 E0.01059
G1 X61.772 Y105.122 E0.00913
G1 X61.808 Y105.331 E0.00667
G1 X61.830 Y105.165 E0.00526
G1 X61.959 Y104.853 E0.01059
G1 X62.165 Y104.585 E0.01059
G1 X62.433 Y104.379 E0.01059
G1 X62.745 Y104.250 E0.01059
G1 X63.034 Y104.212 E0.00913
G1 X63.403 Y104.246 E0.01164
G1 X63.727 Y104.379 E0.01098
G1 X63.995 Y104.585 E0.01059
G1 X64.201 Y104.853 E0.01059
G1 X64.330 Y105.165 E0.01059
G1 X64.350 Y105.319 E0.00486
G1 X64.370 Y105.165 E0.00486
G1 X64.499 Y104.853 E0.01059
G1 X64.705 Y104.585 E0.01059
G1 X64.973 Y104.379 E0.01059
G1 X65.285 Y104.250 E0.01059
G1 X65.574 Y104.212 E0.00913
G1 X65.943 Y104.246 E0.01164
G1 X66.267 Y104.379 E0.01098
G1 X66.535 Y104.585 E0.01059
G1 X66.741 Y104.853 E0.01059
G1 X66.852 Y105.122 E0.00913
G1 X66.888 Y105.331 E0.00667
G1 X66.910 Y105.165 E0.00526
G1 X67.039 Y104.853 E0.01059
G1 X67.245 Y104.585 E0.01059
G1 X67.513 Y104.379 E0.01059
G1 X67.825 Y104.250 E0.01059
G1 X68.114 Y104.212 E0.00913
G1 X68.483 Y104.246 E0.01164
G1 X68.807 Y104.379 E0.01098
G1 X69.075 Y104.585 E0.01059
G1 X69.281 Y104.853 E0.01059
G1 X69.410 Y105.165 E0.01059
G1 X69.430 Y105.319 E0.00486
G1 X69.450 Y105.165 E0.00486
G1 X69.579 Y104.853 E0.01059
G1 X69.785 Y104.585 E0.01059
G1 X70.053 Y104.379 E0.01059
G1 X70.365 Y104.250 E0.01059
G1 X70.654 Y104.212 E0.00913
G1 X71.023 Y104.246 E0.01164
G1 X71.347 Y104.379 E0.01098
G1 X71.615 Y104.585 E0.01059
G1 X71.821 Y104.853 E0.01059
G1 X71.932 Y105.122 E0.00913
G1 X71.968 Y105.331 E0.00667
G1 X71.990 Y105.165 E0.00526
G1 X72.119 Y104.853 E0.01059
G1 X72.325 Y104.585 E0.01059
G1 X72.593 Y104.379 E0.01059
G1 X72.905 Y104.250 E0.01059
G1 X73.194 Y104.212 E0.00913
G1 X73.563 Y104.246 E0.01164
G1 X73.887 Y104.379 E0.01098
G1 X74.155 Y104.585 E0.01059
G1 X74.361 Y104.853 E0.01059
G1 X74.490 Y105.165 E0.01059
G1 X74.510 Y105.319 E0.00486
G1 X74.530 Y105.165 E0.00486
G1 X74.659 Y104.853 E0.01059
G1 X74.865 Y104.585 E0.01059
G1 X75.133 Y104.379 E0.01059
G1 X75.445 Y104.250 E0.01059
G1 X75.734 Y104.212 E0.00913
G1 X76.103 Y104.246 E0.01164
G1 X76.427 Y104.379 E0.01098
G1 X76.695 Y104.585 E0.01059
G1 X76.901 Y104.853 E0.01059
G1 X77.012 Y105.122 E0.00913
G1 X77.048 Y105.331 E0.00667
G1 X77.070 Y105.165 E0.00526
G1 X77.199 Y104.853 E0.01059
G1 X77.405 Y104.585 E0.01059
G1 X77.673 Y104.379 E0.01059
G1 X77.985 Y104.250 E0.01059
G1 X78.274 Y104.212 E0.00913
G1 X78.643 Y104.246 E0.01164
G1 X78.967 Y104.379 E0.01098
G1 X79.235 Y104.585 E0.01059
G1 X79.441 Y104.853 E0.01059
G1 X79.552 Y105.122 E0.00913
G1 X79.588 Y105.331 E0.00667
G1 X79.610 Y105.165 E0.00526
G1 X79.739 Y104.853 E0.01059
G1 X79.945 Y104.585 E0.01059
G1 X80.213 Y104.379 E0.01059
G1 X80.525 Y104.250 E0.01059
G1 X80.814 Y104.212 E0.00913
G1 X81.183 Y104.246 E0.01164
G1 X81.507 Y104.379 E0.01098
G1 X81.775 Y104.585 E0.01059
G1 X81.981 Y104.853 E0.01059
G1 X82.092 Y105.122 E0.00913
G1 X82.128 Y105.331 E0.00667
G1 X82.150 Y105.165 E0.00526
G1 X82.279 Y104.853 E0.01059
G1 X82.485 Y104.585 E0.01059
G1 X82.753 Y104.379 E0.01059
G1 X83.065 Y104.250 E0.01059
G1 X83.354 Y104.212 E0.00913
G1 X83.723 Y104.246 E0.01164
G1 X84.047 Y104.379 E0.01098
G1 X84.315 Y104.585 E0.01059
G1 X84.521 Y104.853 E0.01059
G1 X84.650 Y105.165 E0.01059
G1 X84.670 Y105.319 E0.00486
G1 X84.690 Y105.165 E0.00486
G1 X84.819 Y104.853 E0.01059
G1 X85.025 Y104.585 E0.01059
G1 X85.293 Y104.379 E0.01059
G1 X85.605 Y104.250 E0.01059
G1 X85.894 Y104.212 E0.00913
G1 X86.263 Y104.246 E0.01164
G1 X86.587 Y104.379 E0.01098
G1 X86.855 Y104.585 E0.01059
G1 X87.061 Y104.853 E0.01059
G1 X87.172 Y105.122 E0.00913
G1 X87.208 Y105.331 E0.00667
G1 X87.230 Y105.165 E0.00526
G1 X87.359 Y104.853 E0.01059
G1 X87.565 Y104.585 E0.01059
G1 X87.833 Y104.379 E0.01059
G1 X88.145 Y104.250 E0.01059
G1 X88.434 Y104.212 E0.00913
G1 X88.803 Y104.246 E0.01164
G1 X89.127 Y104.379 E0.01098
G1 X89.395 Y104.585 E0.01059
G1 X89.601 Y104.853 E0.01059
G1 X89.730 Y105.165 E0.01059
G1 X89.750 Y105.319 E0.00486
G1 X89.770 Y105.165 E0.00486
G1 X89.899 Y104.853 E0.01059
G1 X90.105 Y104.585 E0.01059
G1 X90.373 Y104.379 E0.01059
G1 X90.685 Y104.250 E0.01059
G1 X90.974 Y104.212 E0.00913
G1 X91.343 Y104.246 E0.01164
G1 X91.667 Y104.379 E0.01098
G1 X91.935 Y104.585 E0.01059
G1 X92.141 Y104.853 E0.01059
G1 X92.252 Y105.122 E0.00913
G1 X92.288 Y105.331 E0.00667
G1 X92.310 Y105.165 E0.00526
G1 X92.439 Y104.853 E0.01059
G1 X92.645 Y104.585 E0.01059
G1 X92.913 Y104.379 E0.01059
G1 X93.225 Y104.250 E0.01059
G1 X93.514 Y104.212 E0.00913
G1 X93.883 Y104.246 E0.01164
G1 X94.207 Y104.379 E0.01098
G1 X94.475 Y104.585 E0.01059
G1 X94.681 Y104.853 E0.01059
G1 X94.792 Y105.122 E0.00913
G1 X94.828 Y105.331 E0.00667
G1 X94.850 Y105.165 E0.00526
G1 X94.962 Y104.896 E0.00913
G1 X95.175 Y104.593 E0.01164
G1 X95.453 Y104.379 E0.01098
G1 X95.765 Y104.250 E0.01059
G1 X96.054 Y104.212 E0.00913
G1 X96.423 Y104.246 E0.01164
G1 X96.747 Y104.379 E0.01098
G1 X97.015 Y104.585 E0.01059
G1 X97.221 Y104.853 E0.01059
G1 X97.332 Y105.122 E0.00913
G1 X97.395 Y105.488 E0.01164
G1 X97.350 Y105.835 E0.01098
G1 X97.221 Y106.147 E0.01059
G1 X97.015 Y106.415 E0.01059
G1 X96.747 Y106.621 E0.01059
G1 X96.478 Y106.732 E0.00913
G1 X96.112 Y106.795 E0.01164
G1 X95.765 Y106.750 E0.01098
G1 X95.453 Y106.621 E0.01059
G1 X95.185 Y106.415 E0.01059
G1 X94.979 Y106.147 E0.01059
G1 X94.868 Y105.878 E0.00913
G1 X94.832 Y105.669 E0.00667
G1 X94.810 Y105.835 E0.00526
G1 X94.681 Y106.147 E0.01059
G1 X94.475 Y106.415 E0.01059
G1 X94.207 Y106.621 E0.01059
G1 X93.938 Y106.732 E0.00913
G1 X93.572 Y106.795 E0.01164
G1 X93.225 Y106.750 E0.01098
G1 X92.913 Y106.621 E0.01059
G1 X92.645 Y106.415 E0.01059
G1 X92.439 Y106.147 E0.01059
G1 X92.328 Y105.878 E0.00913
G1 X92.292 Y105.669 E0.00667
G1 X92.270 Y105.835 E0.00526
G1 X92.141 Y106.147 E0.01059
G1 X91.935 Y106.415 E0.01059
G1 X91.667 Y106.621 E0.01059
G1 X91.398 Y106.732 E0.00913
G1 X91.032 Y106.795 E0.01164
G1 X90.685 Y106.750 E0.01098
G1 X90.373 Y106.621 E0.01059
G1 X90.105 Y106.415 E0.01059
G1 X89.899 Y106.147 E0.01059
G1 X89.770 Y105.835 E0.01059
G1 X89.750 Y105.681 E0.00486
G1 X89.730 Y105.835 E0.00486
G1 X89.601 Y106.147 E0.01059
G1 X89.395 Y106.415 E0.01059
G1 X89.127 Y106.621 E0.01059
G1 X88.858 Y106.732 E0.00913
G1 X88.492 Y106.795 E0.01164
G1 X88.145 Y106.750 E0.01098
G1 X87.833 Y106.621 E0.01059
G1 X87.565 Y106.415 E0.01059
G1 X87.359 Y106.147 E0.01059
G1 X87.230 Y105.835 E0.01059
G1 X87.210 Y105.681 E0.00486
G1 X87.190 Y105.835 E0.00486
G1 X87.061 Y106.147 E0.01059
G1 X86.855 Y106.415 E0.01059
G1 X86.587 Y106.621 E0.01059
G1 X86.318 Y106.732 E0.00913
G1 X85.952 Y106.795 E0.01164
G1 X85.605 Y106.750 E0.01098
G1 X85.293 Y106.621 E0.01059
G1 X85.025 Y106.415 E0.01059
G1 X84.819 Y106.147 E0.01059
G1 X84.708 Y105.878 E0.00913
G1 X84.672 Y105.669 E0.00667
G1 X84.650 Y105.835 E0.00526
G1 X84.521 Y106.147 E0.01059
G1 X84.315 Y106.415 E0.01059
G1 X84.047 Y106.621 E0.01059
G1 X83.778 Y106.732 E0.00913
G1 X83.412 Y106.795 E0.01164
G1 X83.065 Y106.750 E0.01098
G1 X82.753 Y106.621 E0.01059
G1 X82.485 Y106.415 E0.01059
G1 X82.279 Y106.147 E0.01059
G1 X82.168 Y105.878 E0.00913
G1 X82.132 Y105.669 E0.00667
G1 X82.110 Y105.835 E0.00526
G1 X81.981 Y106.147 E0.01059
G1 X81.775 Y106.415 E0.01059
G1 X81.507 Y106.621 E0.01059
G1 X81.195 Y106.750 E0.01059
G1 X80.860 Y106.794 E0.01059
G1 X80.525 Y106.750 E0.01059
G1 X80.213 Y106.621 E0.01059
G1 X79.945 Y106.415 E0.01059
G1 X79.739 Y106.147 E0.01059
G1 X79.610 Y105.835 E0.01059
G1 X79.590 Y105.681 E0.00486
G1 X79.570 Y105.835 E0.00486
G1 X79.441 Y106.147 E0.01059
G1 X79.235 Y106.415 E0.01059
G1 X78.967 Y106.621 E0.01059
G1 X78.655 Y106.750 E0.01059
G1 X78.320 Y106.794 E0.01059
G1 X77.985 Y106.750 E0.01059
G1 X77.673 Y106.621 E0.01059
G1 X77.405 Y106.415 E0.01059
G1 X77.199 Y106.147 E0.01059
G1 X77.070 Y105.835 E0.01059
G1 X77.050 Y105.681 E0.00486
G1 X77.030 Y105.835 E0.00486
G1 X76.901 Y106.147 E0.01059
G1 X76.695 Y106.415 E0.01059
G1 X76.427 Y106.621 E0.01059
G1 X76.115 Y106.750 E0.01059
G1 X75.780 Y106.794 E0.01059
G1 X75.445 Y106.750 E0.01059
G1 X75.133 Y106.621 E0.01059
G1 X74.865 Y106.415 E0.01059
G1 X74.659 Y106.147 E0.01059
G1 X74.530 Y105.835 E0.01059
G1 X74.510 Y105.681 E0.00486
G1 X74.490 Y105.835 E0.00486
G1 X74.361 Y106.147 E0.01059
G1 X74.155 Y106.415 E0.01059
G1 X73.887 Y106.621 E0.01059
G1 X73.618 Y106.732 E0.00913
G1 X73.252 Y106.795 E0.01164
G1 X72.905 Y106.750 E0.01098
G1 X72.593 Y106.621 E0.01059
G1 X72.325 Y106.415 E0.01059
G1 X72.119 Y106.147 E0.01059
G1 X71.990 Y105.835 E0.01059
G1 X71.970 Y105.681 E0.00486
G1 X71.950 Y105.835 E0.00486
G1 X71.821 Y106.147 E0.01059
G1 X71.615 Y106.415 E0.01059
G1 X71.347 Y106.621 E0.01059
G1 X71.035 Y106.750 E0.01059
G1 X70.700 Y106.794 E0.01059
G1 X70.365 Y106.750 E0.01059
G1 X70.053 Y106.621 E0.01059
G1 X69.785 Y106.415 E0.01059
G1 X69.579 Y106.147 E0.01059
G1 X69.450 Y105.835 E0.01059
G1 X69.430 Y105.681 E0.00486
G1 X69.410 Y105.835 E0.00486
G1 X69.281 Y106.147 E0.01059
G1 X69.075 Y106.415 E0.01059
G1 X68.807 Y106.621 E0.01059
G1 X68.538 Y106.732 E0.00913
G1 X68.172 Y106.795 E0.01164
G1 X67.825 Y106.750 E0.01098
G1 X67.513 Y106.621 E0.01059
G1 X67.245 Y106.415 E0.01059
G1 X67.039 Y106.147 E0.01059
G1 X66.910 Y105.835 E0.01059
G1 X66.890 Y105.681 E0.00486
G1 X66.870 Y105.835 E0.00486
G1 X66.741 Y106.147 E0.01059
G1 X66.535 Y106.415 E0.01059
G1 X66.267 Y106.621 E0.01059
G1 X65.955 Y106.750 E0.01059
G1 X65.620 Y106.794 E0.01059
G1 X65.285 Y106.750 E0.01059
G1 X64.973 Y106.621 E0.01059
G1 X64.705 Y106.415 E0.01059
G1 X64.499 Y106.147 E0.01059
G1 X64.370 Y105.835 E0.01059
G1 X64.350 Y105.681 E0.00486
G1 X64.330 Y105.835 E0.00486
G1 X64.201 Y106.147 E0.01059
G1 X63.995 Y106.415 E0.01059
G1 X63.727 Y106.621 E0.01059
G1 X63.458 Y106.732 E0.00913
G1 X63.092 Y106.795 E0.01164
G1 X62.745 Y106.750 E0.01098
G1 X62.433 Y106.621 E0.01059
G1 X62.165 Y106.415 E0.01059
G1 X61.959 Y106.147 E0.01059
G1 X61.830 Y105.835 E0.01059
G1 X61.810 Y105.681 E0.00486
G1 X61.790 Y105.835 E0.00486
G1 X61.661 Y106.147 E0.01059
G1 X61.455 Y106.415 E0.01059
G1 X61.187 Y106.621 E0.01059
G1 X60.875 Y106.750 E0.01059
G1 X60.540 Y106.794 E0.01059
G1 X60.205 Y106.750 E0.01059
G1 X59.893 Y106.621 E0.01059
G1 X59.625 Y106.415 E0.01059
G1 X59.419 Y106.147 E0.01059
G1 X59.290 Y105.835 E0.01059
G1 X59.270 Y105.681 E0.00486
G1 X59.250 Y105.835 E0.00486
G1 X59.121 Y106.147 E0.01059
G1 X58.915 Y106.415 E0.01059
G1 X58.647 Y106.621 E0.01059
G1 X58.378 Y106.732 E0.00913
G1 X58.012 Y106.795 E0.01164
G1 X57.665 Y106.750 E0.01098
G1 X57.353 Y106.621 E0.01059
G1 X57.085 Y106.415 E0.01059
G1 X56.879 Y106.147 E0.01059
G1 X56.768 Y105.878 E0.00913
G1 X56.705 Y105.512 E0.01164
G1 X56.750 Y105.165 E0.01098
G1 X56.879 Y104.853 E0.01059
G1 X57.085 Y104.585 E0.01059
G1 X57.353 Y104.379 E0.01059
G1 X57.665 Y104.250 E0.01059
G1 X57.954 Y104.212 E0.00913
G1 X58.323 Y104.246 E0.01164
G1 X58.647 Y104.379 E0.01098
G1 X58.915 Y104.585 E0.01059
G1 X59.121 Y104.853 E0.01059
G1 X59.227 Y105.110 E0.00871
M204 S1250
G1 E-2.24000 F4200.000
;WIPE_START
G1 F5760.000
G1 X59.270 Y105.319 E-0.14784
G1 X59.290 Y105.165 E-0.10729
G1 X59.419 Y104.853 E-0.23397
G1 X59.625 Y104.585 E-0.23398
G1 X59.841 Y104.419 E-0.18892
;WIPE_END
G1 E-0.04800 F4200.000
G1 Z0.400 F7200.000
G1 X91.811 Y105.043
G1 Z0.200
G1 E3.20000 F2400.000
M204 S800
;TYPE:External perimeter
G1 F1200.000
G1 X91.888 Y105.228 E0.00626
G1 X91.934 Y105.496 E0.00853
G1 X91.902 Y105.736 E0.00762
G1 X91.811 Y105.957 E0.00748
G1 X91.666 Y106.146 E0.00748
G1 X91.477 Y106.291 E0.00748
G1 X91.292 Y106.368 E0.00626
G1 X91.024 Y106.414 E0.00853
G1 X90.784 Y106.382 E0.00762
G1 X90.563 Y106.291 E0.00748
G1 X90.374 Y106.146 E0.00748
G1 X90.229 Y105.957 E0.00748
G1 X90.138 Y105.736 E0.00748
G1 X90.106 Y105.500 E0.00748
G1 X90.138 Y105.264 E0.00748
G1 X90.229 Y105.043 E0.00748
G1 X90.374 Y104.854 E0.00748
G1 X90.563 Y104.709 E0.00748
G1 X90.784 Y104.618 E0.00748
G1 X90.982 Y104.592 E0.00626
G1 X91.252 Y104.616 E0.00853
G1 X91.477 Y104.709 E0.00762
G1 X91.666 Y104.854 E0.00748
G1 X91.775 Y104.996 E0.00560
M204 S1250
G1 X92.011 Y105.043 F7200.000
G1 X92.769 Y105.957
M204 S800
G1 F1200.000
G1 X92.692 Y105.772 E0.00626
G1 X92.646 Y105.504 E0.00853
G1 X92.678 Y105.264 E0.00762
G1 X92.769 Y105.043 E0.00748
G1 X92.914 Y104.854 E0.00748
G1 X93.103 Y104.709 E0.00748
G1 X93.324 Y104.618 E0.00748
G1 X93.522 Y104.592 E0.00626
G1 X93.792 Y104.616 E0.00853
G1 X94.017 Y104.709 E0.00762
G1 X94.206 Y104.854 E0.00748
G1 X94.351 Y105.043 E0.00748
G1 X94.428 Y105.228 E0.00626
G1 X94.474 Y105.496 E0.00853
G1 X94.442 Y105.736 E0.00762
G1 X94.351 Y105.957 E0.00748
G1 X94.206 Y106.146 E0.00748
G1 X94.017 Y106.291 E0.00748
G1 X93.832 Y106.368 E0.00626
G1 X93.564 Y106.414 E0.00853
G1 X93.324 Y106.382 E0.00762
G1 X93.103 Y106.291 E0.00748
G1 X92.914 Y106.146 E0.00748
G1 X92.805 Y106.004 E0.00560
M204 S1250
G1 X92.569 Y105.957 F7200.000
G1 E-2.24000 F4200.000
;WIPE_START
G1 F5760.000
G1 X92.692 Y105.772 E-0.17878
G1 X92.646 Y105.504 E-0.18838
G1 X92.678 Y105.264 E-0.16825
G1 X92.769 Y105.043 E-0.16520
G1 X92.914 Y104.854 E-0.16520
G1 X92.967 Y104.813 E-0.04619
;WIPE_END
G1 E-0.04800 F4200.000
