; generated by PrusaSlicer 2.3.3+win64 on 2021-10-10 at 18:55:40 UTC


;
;

;
;
; 

; external perimeters extrusion width = 0.45mm
; perimeters extrusion width = 0.45mm
; infill extrusion width = 0.45mm
; solid infill extrusion width = 0.45mm
; top infill extrusion width = 0.40mm
; first layer extrusion width = 0.42mm

M73 P0 R48
M201 X1250 Y1250 Z400 E5000 ; sets maximum accelerations, mm/sec^2
M203 X180 Y180 Z12 E80 ; sets maximum feedrates, mm/sec
M204 P1250 R1250 T1250 ; sets acceleration (P, T) and retract acceleration (R), mm/sec^2
M205 X8.00 Y8.00 Z2.00 E10.00 ; sets the jerk limits, mm/sec
M205 S0 T0 ; sets the minimum extruding and travel feed rate, mm/sec
M107
;TYPE:Custom
G90 ; use absolute coordinates
M83 ; extruder relative mode
M104 S170 ; set extruder temp for bed leveling
M140 S105 ; set bed temp
M109 R170 ; wait for bed leveling temp
M190 S105 ; wait for bed temp
G28 ; home all without mesh bed level
G29 ; mesh bed leveling 
M104 S215 ; set extruder temp
G92 E0.0
G1 Y-2.0 X179 F2400
G1 Z3 F720
M109 S215 ; wait for extruder temp

; intro line
G1 X170 F1000
G1 Z0.2 F720
G1 X110.0 E8.0 F900
G1 X40.0 E10.0 F700
G92 E0.0

M221 S95 ; set flow
G21 ; set units to millimeters
G90 ; use absolute coordinates
M83 ; use relative distances for extrusion
M900 K0.2 ; Filament gcode LA 1.5
; ; Filament gcode LA 1.0
;LAYER_CHANGE
;Z:0.2
;HEIGHT:0.2
;BEFORE_LAYER_CHANGE
G92 E0.0
;0.2


G1 E-3.20000 F4200.000
G1 Z0.200 F7200.000
;AFTER_LAYER_CHANGE
;0.2
G1 Z0.400
G1 X47.809 Y63.959
G1 Z0.200
G1 E3.20000 F2400.000
M204 S800
;TYPE:Skirt
;WIDTH:0.42
G1 F1200.000
G1 X48.550 Y63.635 E0.02536
G1 X49.364 Y63.523 E0.02576
G1 X130.629 Y63.523 E2.54801
G1 X131.179 Y63.572 E0.01732
G1 X131.742 Y63.734 E0.01836
G1 X132.218 Y63.974 E0.01672
G1 X132.698 Y64.344 E0.01900
G1 X133.056 Y64.753 E0.01704
G1 X133.358 Y65.273 E0.01887
G1 X133.559 Y65.878 E0.01997
G1 X133.626 Y66.453 E0.01815
G1 X133.626 Y113.544 E1.47650
G1 X133.534 Y114.218 E0.02135
G1 X133.233 Y114.973 E0.02548
G1 X132.806 Y115.548 E0.02245
G1 X132.191 Y116.041 E0.02470
G1 X131.450 Y116.365 E0.02536
G1 X130.636 Y116.477 E0.02576
G1 X49.348 Y116.477 E2.54872
G1 X48.658 Y116.391 E0.02183
G1 X47.893 Y116.092 E0.02573
G1 X47.311 Y115.664 E0.02268
G1 X46.809 Y115.041 E0.02506
G1 X46.486 Y114.304 E0.02525
G1 X46.373 Y113.498 E0.02552
G1 X46.373 Y66.479 E1.47423
M73 P1 R48
G1 X46.462 Y65.796 E0.02159
G1 X46.761 Y65.037 E0.02561
G1 X47.189 Y64.458 E0.02256
G1 X47.762 Y63.997 E0.02306
M204 S1250
; printing object Case com modelo de place 1 v2 - tampa.stl id:0 copy 0
G1 E-2.24000 F4200.000
;WIPE_START
G1 F5760.000
G1 X48.550 Y63.635 E-0.60047
G1 X48.995 Y63.574 E-0.31153
;WIPE_END
G1 E-0.04800 F4200.000
G1 Z0.400 F7200.000
G1 X51.670 Y102.749
G1 Z0.200
G1 E3.20000 F2400.000
M204 S800
;TYPE:Perimeter
G1 F1200.000
G1 X59.323 Y102.749 E0.23995
G1 X59.323 Y112.230 E0.29727
G1 X51.670 Y112.230 E0.23995
G1 X51.670 Y102.809 E0.29539
M204 S1250
G1 X52.047 Y103.126 F7200.000
M204 S800
G1 F1200.000
G1 X58.946 Y103.126 E0.21631
G1 X58.946 Y111.853 E0.27363
G1 X52.047 Y111.853 E0.21631
G1 X52.047 Y103.186 E0.27174
M204 S1250
G1 X52.424 Y103.503 F7200.000
M204 S800
;TYPE:External perimeter
G1 F1200.000
G1 X58.569 Y103.503 E0.19266
G1 X58.569 Y111.476 E0.24998
G1 X52.424 Y111.476 E0.19266
G1 X52.424 Y103.563 E0.24810
M204 S1250
G1 X52.337 Y103.113 F7200.000
G1 E-2.24000 F4200.000
;WIPE_START
G1 F5760.000
G1 X53.741 Y103.550 E-0.91200
;WIPE_END
G1 E-0.04800 F4200.000
G1 Z0.400 F7200.000
G1 X52.436 Y99.434
G1 Z0.200
G1 E3.20000 F2400.000
M204 S800
;TYPE:Perimeter
G1 F1200.000
G1 X52.436 Y71.208 E0.88501
G1 X127.664 Y71.206 E2.35874
G1 X127.664 Y99.434 E0.88508
G1 X52.496 Y99.434 E2.35686
M204 S1250
M73 P1 R47
G1 X52.813 Y99.057 F7200.000
M204 S800
G1 F1200.000
G1 X52.813 Y71.584 E0.86139
G1 X127.287 Y71.583 E2.33509
G1 X127.287 Y99.057 E0.86143
G1 X52.873 Y99.057 E2.33321
M204 S1250
G1 X53.190 Y98.680 F7200.000
M204 S800
G1 F1200.000
G1 X53.190 Y71.961 E0.83776
M73 P2 R47
G1 X126.910 Y71.960 E2.31145
G1 X126.910 Y98.680 E0.83779
G1 X53.250 Y98.680 E2.30956
M204 S1250
G1 X53.567 Y98.303 F7200.000
M204 S800
;TYPE:External perimeter
G1 F1200.000
G1 X53.567 Y72.337 E0.81413
G1 X126.533 Y72.337 E2.28780
G1 X126.533 Y98.303 E0.81414
G1 X53.627 Y98.303 E2.28592
M204 S1250
G1 X53.170 Y98.348 F7200.000
G1 E-2.24000 F4200.000
;WIPE_START
G1 F5760.000
G1 X53.624 Y96.986 E-0.91200
;WIPE_END
G1 E-0.04800 F4200.000
G1 Z0.400 F7200.000
G1 X59.700 Y102.372
G1 Z0.200
G1 E3.20000 F2400.000
M204 S800
;TYPE:Perimeter
G1 F1200.000
G1 X51.293 Y102.372 E0.26360
G1 X51.293 Y111.928 E0.29963
G1 X50.926 Y111.928 E0.01150
G1 X50.948 Y105.903 E0.18892
G1 X50.948 Y74.097 E0.99725
G1 X50.926 Y68.073 E0.18888
G1 X57.197 Y68.098 E0.19660
G1 X122.803 Y68.098 E2.05706
G1 X129.074 Y68.072 E0.19660
G1 X129.052 Y74.097 E0.18892
G1 X129.052 Y105.904 E0.99727
G1 X129.078 Y111.924 E0.18877
G1 X122.803 Y111.902 E0.19676
M73 P3 R47
G1 X59.700 Y111.902 E1.97854
G1 X59.700 Y102.432 E0.29693
M204 S1250
G1 E-2.24000 F4200.000
;WIPE_START
G1 F5760.000
G1 X58.384 Y102.422 E-0.91200
;WIPE_END
G1 E-0.04800 F4200.000
G1 Z0.400 F7200.000
G1 X50.548 Y112.305
G1 Z0.200
G1 E3.20000 F2400.000
M204 S800
G1 F1200.000
G1 X50.571 Y105.902 E0.20076
G1 X50.571 Y74.098 E0.99721
G1 X50.548 Y67.696 E0.20074
G1 X57.197 Y67.721 E0.20850
G1 X122.803 Y67.721 E2.05700
G1 X129.452 Y67.695 E0.20850
G1 X129.429 Y74.098 E0.20076
G1 X129.429 Y105.903 E0.99722
G1 X129.455 Y112.302 E0.20066
G1 X122.802 Y112.279 E0.20860
G1 X57.197 Y112.279 E2.05699
G1 X50.608 Y112.305 E0.20662
M204 S1250
G1 X50.169 Y112.682 F7200.000
M204 S800
G1 F1200.000
G1 X50.194 Y105.902 E0.21261
G1 X50.194 Y74.098 E0.99716
G1 X50.169 Y67.318 E0.21259
M73 P3 R46
G1 X57.198 Y67.344 E0.22039
G1 X122.802 Y67.344 E2.05695
G1 X129.831 Y67.318 E0.22039
G1 X129.806 Y74.098 E0.21261
G1 X129.806 Y105.902 E0.99717
G1 X129.832 Y112.681 E0.21255
G1 X122.801 Y112.656 E0.22045
G1 X57.198 Y112.656 E2.05694
G1 X50.229 Y112.682 E0.21851
M204 S1250
M73 P4 R46
G1 X49.791 Y113.059 F7200.000
M204 S800
;TYPE:External perimeter
G1 F1200.000
G1 X49.817 Y105.901 E0.22445
G1 X49.817 Y74.099 E0.99712
G1 X49.791 Y66.941 E0.22445
G1 X57.199 Y66.967 E0.23228
G1 X122.801 Y66.967 E2.05690
G1 X130.209 Y66.941 E0.23228
G1 X130.183 Y74.099 E0.22445
G1 X130.183 Y105.901 E0.99712
G1 X130.209 Y113.059 E0.22444
G1 X122.801 Y113.033 E0.23229
G1 X57.199 Y113.033 E2.05690
G1 X49.851 Y113.059 E0.23040
M204 S1250
G1 X49.992 Y112.713 F7200.000
G1 E-2.24000 F4200.000
;WIPE_START
G1 F5760.000
G1 X49.845 Y111.743 E-0.91200
;WIPE_END
G1 E-0.04800 F4200.000
G1 Z0.400 F7200.000
G1 X128.199 Y68.189
G1 Z0.200
G1 E3.20000 F2400.000
M204 S800
;TYPE:Solid infill
;WIDTH:0.421024
G1 F1200.000
G1 X128.788 Y68.778 E0.02620
G1 X128.786 Y69.311 E0.01675
G1 X127.836 Y68.360 E0.04228
G1 X127.303 Y68.362 E0.01674
G1 X128.785 Y69.843 E0.06587
G1 X128.783 Y70.376 E0.01675
G1 X126.771 Y68.364 E0.08946
G1 X126.238 Y68.367 E0.01674
G1 X128.781 Y70.909 E0.11305
G1 X128.779 Y71.442 E0.01675
G1 X125.706 Y68.369 E0.13664
G1 X125.173 Y68.371 E0.01674
G1 X128.777 Y71.975 E0.16023
G1 X128.775 Y72.507 E0.01675
G1 X127.947 Y71.680 E0.03681
G1 X127.947 Y72.214 E0.01681
G1 X128.773 Y73.040 E0.03672
G1 X128.771 Y73.573 E0.01675
G1 X127.947 Y72.749 E0.03663
G1 X127.947 Y73.284 E0.01681
G1 X128.769 Y74.106 E0.03655
G1 X128.769 Y74.641 E0.01681
G1 X127.947 Y73.818 E0.03655
G1 X127.947 Y74.353 E0.01681
G1 X128.769 Y75.175 E0.03655
G1 X128.769 Y75.710 E0.01681
G1 X127.947 Y74.888 E0.03655
G1 X127.947 Y75.423 E0.01681
G1 X128.769 Y76.245 E0.03655
G1 X128.769 Y76.779 E0.01681
G1 X127.947 Y75.957 E0.03655
G1 X127.947 Y76.492 E0.01681
G1 X128.769 Y77.314 E0.03655
G1 X128.769 Y77.849 E0.01681
G1 X127.947 Y77.027 E0.03655
G1 X127.947 Y77.562 E0.01681
G1 X128.769 Y78.384 E0.03655
G1 X128.769 Y78.918 E0.01681
G1 X127.947 Y78.096 E0.03655
G1 X127.947 Y78.631 E0.01681
G1 X128.769 Y79.453 E0.03655
G1 X128.769 Y79.988 E0.01681
G1 X127.947 Y79.166 E0.03655
G1 X127.947 Y79.700 E0.01681
G1 X128.769 Y80.522 E0.03655
G1 X128.769 Y81.057 E0.01681
G1 X127.947 Y80.235 E0.03655
G1 X127.947 Y80.770 E0.01681
G1 X128.769 Y81.592 E0.03655
G1 X128.769 Y82.127 E0.01681
G1 X127.947 Y81.305 E0.03655
G1 X127.947 Y81.839 E0.01681
G1 X128.769 Y82.661 E0.03655
G1 X128.769 Y83.196 E0.01681
G1 X127.947 Y82.374 E0.03655
G1 X127.947 Y82.909 E0.01681
G1 X128.769 Y83.731 E0.03655
G1 X128.769 Y84.266 E0.01681
G1 X127.947 Y83.443 E0.03655
G1 X127.947 Y83.978 E0.01681
G1 X128.769 Y84.800 E0.03655
G1 X128.769 Y85.335 E0.01681
G1 X127.947 Y84.513 E0.03655
G1 X127.947 Y85.048 E0.01681
G1 X128.769 Y85.870 E0.03655
G1 X128.769 Y86.404 E0.01681
G1 X127.947 Y85.582 E0.03655
G1 X127.947 Y86.117 E0.01681
G1 X128.769 Y86.939 E0.03655
G1 X128.769 Y87.474 E0.01681
G1 X127.947 Y86.652 E0.03655
G1 X127.947 Y87.186 E0.01681
G1 X128.769 Y88.009 E0.03655
G1 X128.769 Y88.543 E0.01681
G1 X127.947 Y87.721 E0.03655
G1 X127.947 Y88.256 E0.01681
G1 X128.769 Y89.078 E0.03655
G1 X128.769 Y89.613 E0.01681
G1 X127.947 Y88.791 E0.03655
G1 X127.947 Y89.325 E0.01681
G1 X128.769 Y90.147 E0.03655
G1 X128.769 Y90.682 E0.01681
G1 X127.947 Y89.860 E0.03655
G1 X127.947 Y90.395 E0.01681
G1 X128.769 Y91.217 E0.03655
G1 X128.769 Y91.752 E0.01681
G1 X127.947 Y90.930 E0.03655
G1 X127.947 Y91.464 E0.01681
G1 X128.769 Y92.286 E0.03655
G1 X128.769 Y92.821 E0.01681
G1 X127.947 Y91.999 E0.03655
G1 X127.947 Y92.534 E0.01681
G1 X128.769 Y93.356 E0.03655
G1 X128.769 Y93.890 E0.01681
G1 X127.947 Y93.068 E0.03655
G1 X127.947 Y93.603 E0.01681
G1 X128.769 Y94.425 E0.03655
G1 X128.769 Y94.960 E0.01681
G1 X127.947 Y94.138 E0.03655
G1 X127.947 Y94.673 E0.01681
G1 X128.769 Y95.495 E0.03655
G1 X128.769 Y96.029 E0.01681
G1 X127.947 Y95.207 E0.03655
G1 X127.947 Y95.742 E0.01681
G1 X128.769 Y96.564 E0.03655
G1 X128.769 Y97.099 E0.01681
G1 X127.947 Y96.277 E0.03655
G1 X127.947 Y96.811 E0.01681
G1 X128.769 Y97.633 E0.03655
G1 X128.769 Y98.168 E0.01681
G1 X127.947 Y97.346 E0.03655
G1 X127.947 Y97.881 E0.01681
G1 X128.769 Y98.703 E0.03655
G1 X128.769 Y99.238 E0.01681
G1 X127.947 Y98.416 E0.03655
G1 X127.947 Y98.950 E0.01681
G1 X128.769 Y99.772 E0.03655
G1 X128.769 Y100.307 E0.01681
G1 X127.947 Y99.485 E0.03655
G1 X127.947 Y99.717 E0.00729
G1 X127.644 Y99.717 E0.00952
G1 X128.769 Y100.842 E0.05001
G1 X128.769 Y101.377 E0.01681
G1 X127.110 Y99.717 E0.07379
G1 X126.575 Y99.717 E0.01681
G1 X128.769 Y101.911 E0.09756
G1 X128.769 Y102.446 E0.01681
G1 X126.040 Y99.717 E0.12133
G1 X125.505 Y99.717 E0.01681
G1 X128.769 Y102.981 E0.14511
G1 X128.769 Y103.515 E0.01681
G1 X124.971 Y99.717 E0.16888
G1 X124.436 Y99.717 E0.01681
G1 X128.769 Y104.050 E0.19266
G1 X128.769 Y104.585 E0.01681
G1 X123.901 Y99.717 E0.21643
G1 X123.367 Y99.717 E0.01681
G1 X128.769 Y105.120 E0.24021
G1 X128.769 Y105.654 E0.01681
G1 X122.832 Y99.717 E0.26398
G1 X122.297 Y99.717 E0.01681
G1 X128.770 Y106.190 E0.28781
G1 X128.773 Y106.727 E0.01688
G1 X121.762 Y99.717 E0.31169
G1 X121.228 Y99.717 E0.01681
G1 X128.775 Y107.264 E0.33557
G1 X128.777 Y107.801 E0.01688
G1 X120.693 Y99.717 E0.35945
G1 X120.158 Y99.717 E0.01681
G1 X128.780 Y108.338 E0.38333
G1 X128.782 Y108.876 E0.01688
G1 X119.624 Y99.717 E0.40721
G1 X119.089 Y99.717 E0.01681
G1 X128.784 Y109.413 E0.43109
G1 X128.787 Y109.950 E0.01688
G1 X118.554 Y99.717 E0.45496
G1 X118.019 Y99.717 E0.01681
G1 X128.789 Y110.487 E0.47884
M73 P5 R46
G1 X128.791 Y111.024 E0.01689
G1 X117.485 Y99.717 E0.50272
G1 X116.950 Y99.717 E0.01681
G1 X128.794 Y111.561 E0.52660
G1 X128.794 Y111.640 E0.00249
G1 X128.337 Y111.639 E0.01438
G1 X116.415 Y99.717 E0.53005
G1 X115.880 Y99.717 E0.01681
G1 X127.800 Y111.637 E0.52997
G1 X127.263 Y111.635 E0.01687
G1 X115.346 Y99.717 E0.52989
G1 X114.811 Y99.717 E0.01681
G1 X126.727 Y111.633 E0.52980
G1 X126.190 Y111.631 E0.01687
G1 X114.276 Y99.717 E0.52972
G1 X113.742 Y99.717 E0.01681
G1 X125.654 Y111.629 E0.52964
G1 X125.117 Y111.627 E0.01687
G1 X113.207 Y99.717 E0.52955
G1 X112.672 Y99.717 E0.01681
G1 X124.580 Y111.625 E0.52947
G1 X124.044 Y111.623 E0.01687
G1 X112.137 Y99.717 E0.52939
G1 X111.603 Y99.717 E0.01681
G1 X123.507 Y111.622 E0.52930
G1 X122.971 Y111.620 E0.01687
G1 X111.068 Y99.717 E0.52922
G1 X110.533 Y99.717 E0.01681
G1 X122.435 Y111.619 E0.52919
G1 X121.901 Y111.619 E0.01681
G1 X109.999 Y99.717 E0.52919
G1 X109.464 Y99.717 E0.01681
G1 X121.366 Y111.619 E0.52919
G1 X120.831 Y111.619 E0.01681
G1 X108.929 Y99.717 E0.52919
G1 X108.394 Y99.717 E0.01681
G1 X120.296 Y111.619 E0.52919
G1 X119.762 Y111.619 E0.01681
G1 X107.860 Y99.717 E0.52919
G1 X107.325 Y99.717 E0.01681
G1 X119.227 Y111.619 E0.52919
G1 X118.692 Y111.619 E0.01681
G1 X106.790 Y99.717 E0.52919
G1 X106.256 Y99.717 E0.01681
G1 X118.158 Y111.619 E0.52919
G1 X117.623 Y111.619 E0.01681
G1 X105.721 Y99.717 E0.52919
G1 X105.186 Y99.717 E0.01681
G1 X117.088 Y111.619 E0.52919
M73 P5 R45
G1 X116.553 Y111.619 E0.01681
G1 X104.651 Y99.717 E0.52919
G1 X104.117 Y99.717 E0.01681
G1 X116.019 Y111.619 E0.52919
G1 X115.484 Y111.619 E0.01681
G1 X103.582 Y99.717 E0.52919
G1 X103.047 Y99.717 E0.01681
G1 X114.949 Y111.619 E0.52919
G1 X114.415 Y111.619 E0.01681
G1 X102.512 Y99.717 E0.52919
G1 X101.978 Y99.717 E0.01681
G1 X113.880 Y111.619 E0.52919
G1 X113.345 Y111.619 E0.01681
G1 X101.443 Y99.717 E0.52919
G1 X100.908 Y99.717 E0.01681
G1 X112.810 Y111.619 E0.52919
G1 X112.276 Y111.619 E0.01681
G1 X100.374 Y99.717 E0.52919
M73 P6 R45
G1 X99.839 Y99.717 E0.01681
G1 X111.741 Y111.619 E0.52919
G1 X111.206 Y111.619 E0.01681
G1 X99.304 Y99.717 E0.52919
G1 X98.769 Y99.717 E0.01681
G1 X110.672 Y111.619 E0.52919
G1 X110.137 Y111.619 E0.01681
G1 X98.235 Y99.717 E0.52919
G1 X97.700 Y99.717 E0.01681
G1 X109.602 Y111.619 E0.52919
G1 X109.067 Y111.619 E0.01681
G1 X97.165 Y99.717 E0.52919
G1 X96.631 Y99.717 E0.01681
G1 X108.533 Y111.619 E0.52919
G1 X107.998 Y111.619 E0.01681
G1 X96.096 Y99.717 E0.52919
G1 X95.561 Y99.717 E0.01681
G1 X107.463 Y111.619 E0.52919
G1 X106.929 Y111.619 E0.01681
G1 X95.026 Y99.717 E0.52919
G1 X94.492 Y99.717 E0.01681
G1 X106.394 Y111.619 E0.52919
G1 X105.859 Y111.619 E0.01681
G1 X93.957 Y99.717 E0.52919
G1 X93.422 Y99.717 E0.01681
G1 X105.324 Y111.619 E0.52919
G1 X104.790 Y111.619 E0.01681
G1 X92.888 Y99.717 E0.52919
G1 X92.353 Y99.717 E0.01681
G1 X104.255 Y111.619 E0.52919
G1 X103.720 Y111.619 E0.01681
G1 X91.818 Y99.717 E0.52919
G1 X91.283 Y99.717 E0.01681
G1 X103.185 Y111.619 E0.52919
G1 X102.651 Y111.619 E0.01681
G1 X90.749 Y99.717 E0.52919
G1 X90.214 Y99.717 E0.01681
G1 X102.116 Y111.619 E0.52919
G1 X101.581 Y111.619 E0.01681
G1 X89.679 Y99.717 E0.52919
G1 X89.145 Y99.717 E0.01681
G1 X101.047 Y111.619 E0.52919
G1 X100.512 Y111.619 E0.01681
G1 X88.610 Y99.717 E0.52919
G1 X88.075 Y99.717 E0.01681
G1 X99.977 Y111.619 E0.52919
G1 X99.442 Y111.619 E0.01681
G1 X87.540 Y99.717 E0.52919
G1 X87.006 Y99.717 E0.01681
G1 X98.908 Y111.619 E0.52919
G1 X98.373 Y111.619 E0.01681
G1 X86.471 Y99.717 E0.52919
G1 X85.936 Y99.717 E0.01681
G1 X97.838 Y111.619 E0.52919
G1 X97.304 Y111.619 E0.01681
G1 X85.401 Y99.717 E0.52919
G1 X84.867 Y99.717 E0.01681
G1 X96.769 Y111.619 E0.52919
G1 X96.234 Y111.619 E0.01681
G1 X84.332 Y99.717 E0.52919
G1 X83.797 Y99.717 E0.01681
G1 X95.699 Y111.619 E0.52919
G1 X95.165 Y111.619 E0.01681
G1 X83.263 Y99.717 E0.52919
G1 X82.728 Y99.717 E0.01681
G1 X94.630 Y111.619 E0.52919
M73 P7 R45
G1 X94.095 Y111.619 E0.01681
G1 X82.193 Y99.717 E0.52919
G1 X81.658 Y99.717 E0.01681
G1 X93.561 Y111.619 E0.52919
G1 X93.026 Y111.619 E0.01681
G1 X81.124 Y99.717 E0.52919
G1 X80.589 Y99.717 E0.01681
G1 X92.491 Y111.619 E0.52919
G1 X91.956 Y111.619 E0.01681
G1 X80.054 Y99.717 E0.52919
G1 X79.520 Y99.717 E0.01681
G1 X91.422 Y111.619 E0.52919
G1 X90.887 Y111.619 E0.01681
G1 X78.985 Y99.717 E0.52919
G1 X78.450 Y99.717 E0.01681
G1 X90.352 Y111.619 E0.52919
G1 X89.817 Y111.619 E0.01681
G1 X77.915 Y99.717 E0.52919
G1 X77.381 Y99.717 E0.01681
G1 X89.283 Y111.619 E0.52919
G1 X88.748 Y111.619 E0.01681
G1 X76.846 Y99.717 E0.52919
G1 X76.311 Y99.717 E0.01681
G1 X88.213 Y111.619 E0.52919
G1 X87.679 Y111.619 E0.01681
G1 X75.777 Y99.717 E0.52919
G1 X75.242 Y99.717 E0.01681
