; generated by PrusaSlicer 2.3.3+win64 on 2021-10-10 at 18:56:34 UTC


;
;

;
;
; 

; external perimeters extrusion width = 0.45mm
; perimeters extrusion width = 0.45mm
; infill extrusion width = 0.45mm
; solid infill extrusion width = 0.45mm
; top infill extrusion width = 0.40mm
; first layer extrusion width = 0.42mm

M73 P0 R122
M201 X1250 Y1250 Z400 E5000 ; sets maximum accelerations, mm/sec^2
M203 X180 Y180 Z12 E80 ; sets maximum feedrates, mm/sec
M204 P1250 R1250 T1250 ; sets acceleration (P, T) and retract acceleration (R), mm/sec^2
M205 X8.00 Y8.00 Z2.00 E10.00 ; sets the jerk limits, mm/sec
M205 S0 T0 ; sets the minimum extruding and travel feed rate, mm/sec
M107
;TYPE:Custom
G90 ; use absolute coordinates
M83 ; extruder relative mode
M104 S170 ; set extruder temp for bed leveling
M140 S105 ; set bed temp
M109 R170 ; wait for bed leveling temp
M190 S105 ; wait for bed temp
G28 ; home all without mesh bed level
G29 ; mesh bed leveling 
M104 S215 ; set extruder temp
G92 E0.0
G1 Y-2.0 X179 F2400
G1 Z3 F720
M109 S215 ; wait for extruder temp

; intro line
G1 X170 F1000
G1 Z0.2 F720
G1 X110.0 E8.0 F900
G1 X40.0 E10.0 F700
G92 E0.0

M221 S95 ; set flow
G21 ; set units to millimeters
G90 ; use absolute coordinates
M83 ; use relative distances for extrusion
M900 K0.2 ; Filament gcode LA 1.5
; ; Filament gcode LA 1.0
;LAYER_CHANGE
;Z:0.2
;HEIGHT:0.2
;BEFORE_LAYER_CHANGE
G92 E0.0
;0.2


G1 E-3.20000 F4200.000
G1 Z0.200 F7200.000
;AFTER_LAYER_CHANGE
;0.2
G1 Z0.400
G1 X47.244 Y63.266
G1 Z0.200
G1 E3.20000 F2400.000
M204 S800
;TYPE:Skirt
;WIDTH:0.42
G1 F1200.000
G1 X48.094 Y62.897 E0.02906
G1 X48.986 Y62.773 E0.02824
G1 X131.004 Y62.773 E2.57161
G1 X131.686 Y62.846 E0.02150
G1 X132.160 Y62.984 E0.01550
G1 X132.765 Y63.271 E0.02098
G1 X133.370 Y63.744 E0.02408
G1 X133.808 Y64.280 E0.02170
G1 X134.048 Y64.707 E0.01538
G1 X134.277 Y65.336 E0.02098
G1 X134.376 Y66.071 E0.02326
G1 X134.376 Y113.926 E1.50046
G1 X134.256 Y114.747 E0.02602
G1 X133.926 Y115.536 E0.02681
G1 X133.409 Y116.217 E0.02681
G1 X132.756 Y116.734 E0.02610
G1 X131.906 Y117.103 E0.02906
G1 X131.014 Y117.227 E0.02824
G1 X48.970 Y117.227 E2.57245
G1 X48.121 Y117.111 E0.02685
G1 X47.327 Y116.784 E0.02693
G1 X46.636 Y116.261 E0.02717
G1 X46.116 Y115.606 E0.02622
G1 X45.748 Y114.760 E0.02894
G1 X45.624 Y113.876 E0.02797
G1 X45.624 Y66.097 E1.49810
G1 X45.742 Y65.260 E0.02650
G1 X46.070 Y64.470 E0.02681
G1 X46.591 Y63.783 E0.02705
G1 X47.197 Y63.303 E0.02422
M204 S1250
; printing object Case com modelo de place 1 - base.stl id:0 copy 0
G1 E-2.24000 F4200.000
;WIPE_START
G1 F5760.000
G1 X48.094 Y62.897 E-0.68227
G1 X48.423 Y62.851 E-0.22973
;WIPE_END
G1 E-0.04800 F4200.000
G1 Z0.400 F7200.000
G1 X49.541 Y66.691
G1 Z0.200
G1 E3.20000 F2400.000
M204 S800
;TYPE:Perimeter
G1 F1200.000
G1 X130.459 Y66.691 E2.53711
M73 P0 R121
G1 X130.459 Y113.309 E1.46166
G1 X49.541 Y113.309 E2.53711
G1 X49.541 Y66.751 E1.45978
M204 S1250
G1 X49.164 Y66.314 F7200.000
M204 S800
G1 F1200.000
G1 X130.836 Y66.314 E2.56076
G1 X130.836 Y113.686 E1.48531
G1 X49.164 Y113.686 E2.56076
G1 X49.164 Y66.374 E1.48342
M204 S1250
G1 X48.821 Y66.047 F7200.000
M204 S800
G1 F1200.000
G1 X48.897 Y65.971 E0.00335
G1 X49.052 Y65.937 E0.00497
G1 X130.948 Y65.937 E2.56782
G1 X131.103 Y65.971 E0.00497
G1 X131.179 Y66.047 E0.00335
G1 X131.213 Y66.202 E0.00497
G1 X131.213 Y113.798 E1.49237
G1 X131.179 Y113.953 E0.00497
G1 X131.103 Y114.029 E0.00335
G1 X130.948 Y114.063 E0.00497
G1 X49.052 Y114.063 E2.56782
G1 X48.897 Y114.029 E0.00497
G1 X48.821 Y113.953 E0.00335
G1 X48.787 Y113.798 E0.00497
G1 X48.787 Y66.202 E1.49236
G1 X48.800 Y66.103 E0.00313
M204 S1250
G1 X48.707 Y65.642 F7200.000
M204 S800
;TYPE:External perimeter
G1 F1200.000
G1 X48.848 Y65.584 E0.00480
G1 X49.027 Y65.560 E0.00565
G1 X130.973 Y65.560 E2.56937
M73 P1 R121
G1 X131.152 Y65.584 E0.00565
G1 X131.293 Y65.642 E0.00480
G1 X131.415 Y65.735 E0.00480
G1 X131.508 Y65.857 E0.00480
G1 X131.566 Y65.998 E0.00480
G1 X131.590 Y66.177 E0.00565
G1 X131.590 Y113.823 E1.49391
G1 X131.566 Y114.002 E0.00565
G1 X131.508 Y114.143 E0.00480
G1 X131.415 Y114.265 E0.00480
G1 X131.293 Y114.358 E0.00480
G1 X131.152 Y114.416 E0.00480
G1 X130.973 Y114.440 E0.00565
G1 X49.027 Y114.440 E2.56937
G1 X48.848 Y114.416 E0.00565
G1 X48.707 Y114.358 E0.00480
G1 X48.585 Y114.265 E0.00480
G1 X48.492 Y114.143 E0.00480
G1 X48.434 Y114.002 E0.00480
G1 X48.410 Y113.823 E0.00565
G1 X48.410 Y66.177 E1.49391
G1 X48.434 Y65.998 E0.00565
G1 X48.492 Y65.857 E0.00480
G1 X48.585 Y65.735 E0.00480
G1 X48.659 Y65.679 E0.00292
M204 S1250
G1 X48.839 Y65.719 F7200.000
G1 E-2.24000 F4200.000
;WIPE_START
G1 F5760.000
G1 X48.848 Y65.584 E-0.14659
G1 X49.027 Y65.560 E-0.12483
G1 X49.952 Y65.560 E-0.64058
;WIPE_END
G1 E-0.04800 F4200.000
G1 Z0.400 F7200.000
G1 X129.582 Y66.804
G1 Z0.200
G1 E3.20000 F2400.000
M204 S800
;TYPE:Solid infill
;WIDTH:0.420711
G1 F1200.000
G1 X130.176 Y67.398 E0.02639
G1 X130.176 Y67.933 E0.01678
G1 X129.217 Y66.974 E0.04259
G1 X128.683 Y66.974 E0.01678
G1 X130.176 Y68.467 E0.06633
G1 X130.176 Y69.001 E0.01678
G1 X128.149 Y66.974 E0.09006
G1 X127.614 Y66.974 E0.01678
G1 X130.176 Y69.536 E0.11380
G1 X130.176 Y70.070 E0.01678
G1 X127.080 Y66.974 E0.13753
G1 X126.546 Y66.974 E0.01678
G1 X130.176 Y70.604 E0.16127
G1 X130.176 Y71.138 E0.01678
G1 X126.012 Y66.974 E0.18500
G1 X125.477 Y66.974 E0.01678
G1 X130.176 Y71.673 E0.20874
G1 X130.176 Y72.207 E0.01678
G1 X124.943 Y66.974 E0.23247
G1 X124.409 Y66.974 E0.01678
G1 X130.176 Y72.741 E0.25621
G1 X130.176 Y73.275 E0.01678
G1 X123.875 Y66.974 E0.27994
G1 X123.340 Y66.974 E0.01678
G1 X130.176 Y73.810 E0.30368
G1 X130.176 Y74.344 E0.01678
G1 X122.806 Y66.974 E0.32742
G1 X122.272 Y66.974 E0.01678
G1 X130.176 Y74.878 E0.35115
G1 X130.176 Y75.413 E0.01678
G1 X121.737 Y66.974 E0.37489
G1 X121.203 Y66.974 E0.01678
G1 X130.176 Y75.947 E0.39862
G1 X130.176 Y76.481 E0.01678
G1 X120.669 Y66.974 E0.42236
G1 X120.135 Y66.974 E0.01678
G1 X130.176 Y77.015 E0.44609
G1 X130.176 Y77.550 E0.01678
G1 X119.600 Y66.974 E0.46983
G1 X119.066 Y66.974 E0.01678
G1 X130.176 Y78.084 E0.49356
G1 X130.176 Y78.618 E0.01678
G1 X118.532 Y66.974 E0.51730
M73 P1 R120
G1 X117.997 Y66.974 E0.01678
G1 X130.176 Y79.153 E0.54103
G1 X130.176 Y79.687 E0.01678
G1 X117.463 Y66.974 E0.56477
G1 X116.929 Y66.974 E0.01678
G1 X130.176 Y80.221 E0.58850
G1 X130.176 Y80.755 E0.01678
G1 X116.395 Y66.974 E0.61224
G1 X115.860 Y66.974 E0.01678
G1 X130.176 Y81.290 E0.63598
G1 X130.176 Y81.824 E0.01678
G1 X115.326 Y66.974 E0.65971
G1 X114.792 Y66.974 E0.01678
G1 X130.176 Y82.358 E0.68345
G1 X130.176 Y82.892 E0.01678
G1 X114.258 Y66.974 E0.70718
G1 X113.723 Y66.974 E0.01678
G1 X130.176 Y83.427 E0.73092
G1 X130.176 Y83.961 E0.01678
G1 X113.189 Y66.974 E0.75465
G1 X112.655 Y66.974 E0.01678
G1 X130.176 Y84.495 E0.77839
G1 X130.176 Y85.030 E0.01678
G1 X112.120 Y66.974 E0.80212
G1 X111.586 Y66.974 E0.01678
G1 X130.176 Y85.564 E0.82586
G1 X130.176 Y86.098 E0.01678
G1 X111.052 Y66.974 E0.84959
G1 X110.518 Y66.974 E0.01678
G1 X130.176 Y86.632 E0.87333
G1 X130.176 Y87.167 E0.01678
G1 X109.983 Y66.974 E0.89707
G1 X109.449 Y66.974 E0.01678
G1 X130.176 Y87.701 E0.92080
G1 X130.176 Y88.235 E0.01678
G1 X108.915 Y66.974 E0.94454
G1 X108.380 Y66.974 E0.01678
G1 X130.176 Y88.770 E0.96827
G1 X130.176 Y89.304 E0.01678
G1 X107.846 Y66.974 E0.99201
G1 X107.312 Y66.974 E0.01678
G1 X130.176 Y89.838 E1.01574
G1 X130.176 Y90.372 E0.01678
G1 X106.778 Y66.974 E1.03948
G1 X106.243 Y66.974 E0.01678
G1 X130.176 Y90.907 E1.06321
G1 X130.176 Y91.441 E0.01678
G1 X105.709 Y66.974 E1.08695
G1 X105.175 Y66.974 E0.01678
G1 X130.176 Y91.975 E1.11068
G1 X130.176 Y92.509 E0.01678
G1 X104.641 Y66.974 E1.13442
G1 X104.106 Y66.974 E0.01678
G1 X130.176 Y93.044 E1.15816
G1 X130.176 Y93.578 E0.01678
G1 X103.572 Y66.974 E1.18189
G1 X103.038 Y66.974 E0.01678
G1 X130.176 Y94.112 E1.20563
G1 X130.176 Y94.647 E0.01678
G1 X102.503 Y66.974 E1.22936
G1 X101.969 Y66.974 E0.01678
G1 X130.176 Y95.181 E1.25310
G1 X130.176 Y95.715 E0.01678
G1 X101.435 Y66.974 E1.27683
G1 X100.901 Y66.974 E0.01678
G1 X130.176 Y96.249 E1.30057
G1 X130.176 Y96.784 E0.01678
G1 X100.366 Y66.974 E1.32430
G1 X99.832 Y66.974 E0.01678
G1 X130.176 Y97.318 E1.34804
M73 P2 R120
G1 X130.176 Y97.852 E0.01678
G1 X99.298 Y66.974 E1.37177
G1 X98.763 Y66.974 E0.01678
G1 X130.176 Y98.387 E1.39551
G1 X130.176 Y98.921 E0.01678
G1 X98.229 Y66.974 E1.41925
M73 P2 R119
G1 X97.695 Y66.974 E0.01678
G1 X130.176 Y99.455 E1.44298
G1 X130.176 Y99.989 E0.01678
G1 X97.161 Y66.974 E1.46672
G1 X96.626 Y66.974 E0.01678
G1 X130.176 Y100.524 E1.49045
G1 X130.176 Y101.058 E0.01678
G1 X96.092 Y66.974 E1.51419
G1 X95.558 Y66.974 E0.01678
G1 X130.176 Y101.592 E1.53792
G1 X130.176 Y102.126 E0.01678
G1 X95.024 Y66.974 E1.56166
G1 X94.489 Y66.974 E0.01678
G1 X130.176 Y102.661 E1.58539
G1 X130.176 Y103.195 E0.01678
G1 X93.955 Y66.974 E1.60913
G1 X93.421 Y66.974 E0.01678
G1 X130.176 Y103.729 E1.63286
G1 X130.176 Y104.264 E0.01678
G1 X92.886 Y66.974 E1.65660
G1 X92.352 Y66.974 E0.01678
G1 X130.176 Y104.798 E1.68034
G1 X130.176 Y105.332 E0.01678
G1 X91.818 Y66.974 E1.70407
G1 X91.284 Y66.974 E0.01678
G1 X130.176 Y105.866 E1.72781
G1 X130.176 Y106.401 E0.01678
G1 X90.749 Y66.974 E1.75154
G1 X90.215 Y66.974 E0.01678
G1 X130.176 Y106.935 E1.77528
G1 X130.176 Y107.469 E0.01678
G1 X89.681 Y66.974 E1.79901
G1 X89.146 Y66.974 E0.01678
G1 X130.176 Y108.004 E1.82275
G1 X130.176 Y108.538 E0.01678
G1 X88.612 Y66.974 E1.84648
G1 X88.078 Y66.974 E0.01678
G1 X130.176 Y109.072 E1.87022
G1 X130.176 Y109.606 E0.01678
G1 X87.544 Y66.974 E1.89395
G1 X87.009 Y66.974 E0.01678
G1 X130.176 Y110.141 E1.91769
G1 X130.176 Y110.675 E0.01678
G1 X86.475 Y66.974 E1.94142
M73 P2 R118
G1 X85.941 Y66.974 E0.01678
G1 X130.176 Y111.209 E1.96516
G1 X130.176 Y111.743 E0.01678
G1 X85.407 Y66.974 E1.98890
M73 P3 R118
G1 X84.872 Y66.974 E0.01678
G1 X130.176 Y112.278 E2.01263
G1 X130.176 Y112.812 E0.01678
G1 X84.338 Y66.974 E2.03637
G1 X83.804 Y66.974 E0.01678
G1 X129.856 Y113.026 E2.04587
G1 X129.321 Y113.026 E0.01678
G1 X83.269 Y66.974 E2.04587
G1 X82.735 Y66.974 E0.01678
G1 X128.787 Y113.026 E2.04587
G1 X128.253 Y113.026 E0.01678
G1 X82.201 Y66.974 E2.04587
G1 X81.667 Y66.974 E0.01678
G1 X127.719 Y113.026 E2.04587
G1 X127.184 Y113.026 E0.01678
G1 X81.132 Y66.974 E2.04587
G1 X80.598 Y66.974 E0.01678
G1 X126.650 Y113.026 E2.04587
G1 X126.116 Y113.026 E0.01678
G1 X80.064 Y66.974 E2.04587
G1 X79.530 Y66.974 E0.01678
G1 X125.581 Y113.026 E2.04587
G1 X125.047 Y113.026 E0.01678
G1 X78.995 Y66.974 E2.04587
G1 X78.461 Y66.974 E0.01678
G1 X124.513 Y113.026 E2.04587
G1 X123.979 Y113.026 E0.01678
G1 X77.927 Y66.974 E2.04587
G1 X77.392 Y66.974 E0.01678
G1 X123.444 Y113.026 E2.04587
G1 X122.910 Y113.026 E0.01678
G1 X76.858 Y66.974 E2.04587
M73 P3 R117
G1 X76.324 Y66.974 E0.01678
G1 X122.376 Y113.026 E2.04587
G1 X121.841 Y113.026 E0.01678
G1 X75.790 Y66.974 E2.04587
G1 X75.255 Y66.974 E0.01678
G1 X121.307 Y113.026 E2.04587
G1 X120.773 Y113.026 E0.01678
G1 X74.721 Y66.974 E2.04587
G1 X74.187 Y66.974 E0.01678
G1 X120.239 Y113.026 E2.04587
G1 X119.704 Y113.026 E0.01678
G1 X73.652 Y66.974 E2.04587
M73 P4 R117
G1 X73.118 Y66.974 E0.01678
G1 X119.170 Y113.026 E2.04587
G1 X118.636 Y113.026 E0.01678
G1 X72.584 Y66.974 E2.04587
G1 X72.050 Y66.974 E0.01678
G1 X118.102 Y113.026 E2.04587
G1 X117.567 Y113.026 E0.01678
G1 X71.515 Y66.974 E2.04587
G1 X70.981 Y66.974 E0.01678
G1 X117.033 Y113.026 E2.04587
G1 X116.499 Y113.026 E0.01678
G1 X70.447 Y66.974 E2.04587
G1 X69.913 Y66.974 E0.01678
G1 X115.964 Y113.026 E2.04587
G1 X115.430 Y113.026 E0.01678
G1 X69.378 Y66.974 E2.04587
G1 X68.844 Y66.974 E0.01678
G1 X114.896 Y113.026 E2.04587
G1 X114.362 Y113.026 E0.01678
G1 X68.310 Y66.974 E2.04587
G1 X67.775 Y66.974 E0.01678
G1 X113.827 Y113.026 E2.04587
G1 X113.293 Y113.026 E0.01678
G1 X67.241 Y66.974 E2.04587
G1 X66.707 Y66.974 E0.01678
G1 X112.759 Y113.026 E2.04587
M73 P4 R116
G1 X112.224 Y113.026 E0.01678
G1 X66.173 Y66.974 E2.04587
G1 X65.638 Y66.974 E0.01678
G1 X111.690 Y113.026 E2.04587
G1 X111.156 Y113.026 E0.01678
G1 X65.104 Y66.974 E2.04587
G1 X64.570 Y66.974 E0.01678
G1 X110.622 Y113.026 E2.04587
G1 X110.087 Y113.026 E0.01678
G1 X64.035 Y66.974 E2.04587
G1 X63.501 Y66.974 E0.01678
G1 X109.553 Y113.026 E2.04587
G1 X109.019 Y113.026 E0.01678
G1 X62.967 Y66.974 E2.04587
G1 X62.433 Y66.974 E0.01678
G1 X108.485 Y113.026 E2.04587
G1 X107.950 Y113.026 E0.01678
G1 X61.898 Y66.974 E2.04587
M73 P5 R116
G1 X61.364 Y66.974 E0.01678
G1 X107.416 Y113.026 E2.04587
G1 X106.882 Y113.026 E0.01678
G1 X60.830 Y66.974 E2.04587
G1 X60.296 Y66.974 E0.01678
G1 X106.347 Y113.026 E2.04587
G1 X105.813 Y113.026 E0.01678
G1 X59.761 Y66.974 E2.04587
G1 X59.227 Y66.974 E0.01678
G1 X105.279 Y113.026 E2.04587
G1 X104.745 Y113.026 E0.01678
G1 X58.693 Y66.974 E2.04587
G1 X58.158 Y66.974 E0.01678
G1 X104.210 Y113.026 E2.04587
G1 X103.676 Y113.026 E0.01678
G1 X57.624 Y66.974 E2.04587
G1 X57.090 Y66.974 E0.01678
G1 X103.142 Y113.026 E2.04587
M73 P5 R115
G1 X102.608 Y113.026 E0.01678
G1 X56.556 Y66.974 E2.04587
G1 X56.021 Y66.974 E0.01678
G1 X102.073 Y113.026 E2.04587
G1 X101.539 Y113.026 E0.01678
G1 X55.487 Y66.974 E2.04587
G1 X54.953 Y66.974 E0.01678
G1 X101.005 Y113.026 E2.04587
G1 X100.470 Y113.026 E0.01678
G1 X54.418 Y66.974 E2.04587
G1 X53.884 Y66.974 E0.01678
G1 X99.936 Y113.026 E2.04587
G1 X99.402 Y113.026 E0.01678
G1 X53.350 Y66.974 E2.04587
G1 X52.816 Y66.974 E0.01678
G1 X98.868 Y113.026 E2.04587
G1 X98.333 Y113.026 E0.01678
G1 X52.281 Y66.974 E2.04587
G1 X51.747 Y66.974 E0.01678
G1 X97.799 Y113.026 E2.04587
G1 X97.265 Y113.026 E0.01678
G1 X51.213 Y66.974 E2.04587
G1 X50.679 Y66.974 E0.01678
G1 X96.730 Y113.026 E2.04587
G1 X96.196 Y113.026 E0.01678
G1 X50.144 Y66.974 E2.04587
G1 X49.824 Y66.974 E0.01006
G1 X49.824 Y67.188 E0.00672
G1 X95.662 Y113.026 E2.03636
M73 P6 R115
G1 X95.128 Y113.026 E0.01678
G1 X49.824 Y67.722 E2.01263
G1 X49.824 Y68.257 E0.01678
G1 X94.593 Y113.026 E1.98889
G1 X94.059 Y113.026 E0.01678
G1 X49.824 Y68.791 E1.96516
G1 X49.824 Y69.325 E0.01678
G1 X93.525 Y113.026 E1.94142
M73 P6 R114
G1 X92.991 Y113.026 E0.01678
G1 X49.824 Y69.859 E1.91769
G1 X49.824 Y70.394 E0.01678
G1 X92.456 Y113.026 E1.89395
G1 X91.922 Y113.026 E0.01678
G1 X49.824 Y70.928 E1.87021
G1 X49.824 Y71.462 E0.01678
G1 X91.388 Y113.026 E1.84648
G1 X90.853 Y113.026 E0.01678
G1 X49.824 Y71.997 E1.82274
G1 X49.824 Y72.531 E0.01678
G1 X90.319 Y113.026 E1.79901
G1 X89.785 Y113.026 E0.01678
G1 X49.824 Y73.065 E1.77527
G1 X49.824 Y73.599 E0.01678
G1 X89.251 Y113.026 E1.75154
G1 X88.716 Y113.026 E0.01678
G1 X49.824 Y74.134 E1.72780
G1 X49.824 Y74.668 E0.01678
G1 X88.182 Y113.026 E1.70407
G1 X87.648 Y113.026 E0.01678
G1 X49.824 Y75.202 E1.68033
G1 X49.824 Y75.737 E0.01678
G1 X87.113 Y113.026 E1.65660
G1 X86.579 Y113.026 E0.01678
G1 X49.824 Y76.271 E1.63286
G1 X49.824 Y76.805 E0.01678
G1 X86.045 Y113.026 E1.60912
G1 X85.511 Y113.026 E0.01678
G1 X49.824 Y77.339 E1.58539
G1 X49.824 Y77.874 E0.01678
G1 X84.976 Y113.026 E1.56165
G1 X84.442 Y113.026 E0.01678
G1 X49.824 Y78.408 E1.53792
G1 X49.824 Y78.942 E0.01678
G1 X83.908 Y113.026 E1.51418
G1 X83.374 Y113.026 E0.01678
G1 X49.824 Y79.476 E1.49045
G1 X49.824 Y80.011 E0.01678
G1 X82.839 Y113.026 E1.46671
G1 X82.305 Y113.026 E0.01678
G1 X49.824 Y80.545 E1.44298
G1 X49.824 Y81.079 E0.01678
G1 X81.771 Y113.026 E1.41924
M73 P7 R113
G1 X81.236 Y113.026 E0.01678
G1 X49.824 Y81.614 E1.39551
G1 X49.824 Y82.148 E0.01678
G1 X80.702 Y113.026 E1.37177
G1 X80.168 Y113.026 E0.01678
G1 X49.824 Y82.682 E1.34803
G1 X49.824 Y83.216 E0.01678
G1 X79.634 Y113.026 E1.32430
G1 X79.099 Y113.026 E0.01678
G1 X49.824 Y83.751 E1.30056
G1 X49.824 Y84.285 E0.01678
G1 X78.565 Y113.026 E1.27683
G1 X78.031 Y113.026 E0.01678
G1 X49.824 Y84.819 E1.25309
G1 X49.824 Y85.354 E0.01678
G1 X77.496 Y113.026 E1.22936
G1 X76.962 Y113.026 E0.01678
G1 X49.824 Y85.888 E1.20562
G1 X49.824 Y86.422 E0.01678
G1 X76.428 Y113.026 E1.18189
G1 X75.894 Y113.026 E0.01678
G1 X49.824 Y86.956 E1.15815
G1 X49.824 Y87.491 E0.01678
G1 X75.359 Y113.026 E1.13442
G1 X74.825 Y113.026 E0.01678
G1 X49.824 Y88.025 E1.11068
