; generated by PrusaSlicer 2.3.3+win64 on 2021-10-10 at 18:54:38 UTC


;
;

;
;
; 

; external perimeters extrusion width = 0.45mm
; perimeters extrusion width = 0.45mm
; infill extrusion width = 0.45mm
; solid infill extrusion width = 0.45mm
; top infill extrusion width = 0.40mm
; first layer extrusion width = 0.42mm

M73 P0 R68
M201 X1250 Y1250 Z400 E5000 ; sets maximum accelerations, mm/sec^2
M203 X180 Y180 Z12 E80 ; sets maximum feedrates, mm/sec
M204 P1250 R1250 T1250 ; sets acceleration (P, T) and retract acceleration (R), mm/sec^2
M205 X8.00 Y8.00 Z2.00 E10.00 ; sets the jerk limits, mm/sec
M205 S0 T0 ; sets the minimum extruding and travel feed rate, mm/sec
M107
;TYPE:Custom
G90 ; use absolute coordinates
M83 ; extruder relative mode
M104 S170 ; set extruder temp for bed leveling
M140 S105 ; set bed temp
M109 R170 ; wait for bed leveling temp
M190 S105 ; wait for bed temp
G28 ; home all without mesh bed level
G29 ; mesh bed leveling 
M104 S215 ; set extruder temp
G92 E0.0
G1 Y-2.0 X179 F2400
G1 Z3 F720
M109 S215 ; wait for extruder temp

; intro line
G1 X170 F1000
G1 Z0.2 F720
G1 X110.0 E8.0 F900
G1 X40.0 E10.0 F700
G92 E0.0

M221 S95 ; set flow
G21 ; set units to millimeters
G90 ; use absolute coordinates
M83 ; use relative distances for extrusion
M900 K0.2 ; Filament gcode LA 1.5
; ; Filament gcode LA 1.0
;LAYER_CHANGE
;Z:0.2
;HEIGHT:0.2
;BEFORE_LAYER_CHANGE
G92 E0.0
;0.2


G1 E-3.20000 F4200.000
G1 Z0.200 F7200.000
;AFTER_LAYER_CHANGE
;0.2
G1 Z0.400
G1 X66.117 Y69.349
G1 Z0.200
G1 E3.20000 F2400.000
M204 S800
;TYPE:Skirt
;WIDTH:0.42
G1 F1200.000
G1 X66.751 Y68.926 E0.02390
G1 X67.426 Y68.733 E0.02201
G1 X68.379 Y68.713 E0.02987
G1 X68.915 Y68.775 E0.01692
G1 X79.140 Y71.227 E0.32969
G1 X79.780 Y71.495 E0.02176
G1 X80.330 Y71.925 E0.02189
G1 X110.825 Y108.432 E1.49145
G1 X111.089 Y108.876 E0.01621
G1 X111.250 Y109.367 E0.01621
G1 X111.297 Y110.656 E0.04043
G1 X111.083 Y111.497 E0.02720
G1 X110.579 Y112.207 E0.02731
G1 X109.835 Y112.696 E0.02790
G1 X108.964 Y112.877 E0.02790
G1 X70.181 Y112.877 E1.21601
G1 X69.258 Y112.689 E0.02954
G1 X68.478 Y112.154 E0.02966
G1 X68.021 Y111.484 E0.02543
G1 X67.816 Y110.695 E0.02555
G1 X65.358 Y74.274 E1.14455
G1 X65.363 Y70.930 E0.10485
G1 X65.453 Y70.425 E0.01609
G1 X65.647 Y69.954 E0.01597
G1 X66.080 Y69.396 E0.02214
M204 S1250
; printing object Placa 3d v2 v1.stl id:0 copy 0
G1 E-2.24000 F4200.000
;WIPE_START
G1 F5760.000
G1 X66.751 Y68.926 E-0.56762
G1 X67.229 Y68.789 E-0.34438
;WIPE_END
G1 E-0.04800 F4200.000
G1 Z0.400 F7200.000
G1 X70.495 Y110.170
G1 Z0.200
G1 E3.20000 F2400.000
M204 S800
;TYPE:External perimeter
G1 F1200.000
G1 X70.515 Y110.170 E0.00063
M204 S1250
G1 E-2.24000 F4200.000
;WIPE_START
G1 F5760.000
G1 X70.515 Y110.170 E0.00000
;WIPE_END
G1 E-0.96000 F4200.000
G1 Z0.400 F7200.000
G1 X73.035 Y110.190
G1 Z0.200
G1 E3.20000 F2400.000
M204 S800
G1 F1200.000
G1 X73.035 Y110.170 E0.00063
M204 S1250
G1 E-2.24000 F4200.000
;WIPE_START
G1 F5760.000
G1 X73.035 Y110.170 E0.00000
;WIPE_END
G1 E-0.96000 F4200.000
G1 Z0.400 F7200.000
G1 X75.575 Y110.190
G1 Z0.200
G1 E3.20000 F2400.000
M204 S800
G1 F1200.000
G1 X75.575 Y110.170 E0.00063
M204 S1250
G1 E-2.24000 F4200.000
;WIPE_START
G1 F5760.000
G1 X75.575 Y110.170 E0.00000
;WIPE_END
G1 E-0.96000 F4200.000
G1 Z0.400 F7200.000
G1 X78.115 Y110.190
G1 Z0.200
G1 E3.20000 F2400.000
M204 S800
G1 F1200.000
G1 X78.115 Y110.170 E0.00063
M204 S1250
G1 E-2.24000 F4200.000
;WIPE_START
G1 F5760.000
G1 X78.115 Y110.170 E0.00000
;WIPE_END
G1 E-0.96000 F4200.000
G1 Z0.400 F7200.000
G1 X80.655 Y110.190
G1 Z0.200
G1 E3.20000 F2400.000
M204 S800
G1 F1200.000
G1 X80.655 Y110.170 E0.00063
M204 S1250
G1 E-2.24000 F4200.000
;WIPE_START
G1 F5760.000
G1 X80.655 Y110.170 E0.00000
;WIPE_END
G1 E-0.96000 F4200.000
G1 Z0.400 F7200.000
G1 X83.195 Y110.190
G1 Z0.200
G1 E3.20000 F2400.000
M204 S800
G1 F1200.000
G1 X83.195 Y110.170 E0.00063
M204 S1250
G1 E-2.24000 F4200.000
;WIPE_START
G1 F5760.000
G1 X83.195 Y110.170 E0.00000
;WIPE_END
G1 E-0.96000 F4200.000
G1 Z0.400 F7200.000
G1 X85.735 Y110.190
G1 Z0.200
G1 E3.20000 F2400.000
M204 S800
G1 F1200.000
G1 X85.735 Y110.170 E0.00063
M204 S1250
G1 E-2.24000 F4200.000
;WIPE_START
G1 F5760.000
G1 X85.735 Y110.170 E0.00000
;WIPE_END
G1 E-0.96000 F4200.000
G1 Z0.400 F7200.000
G1 X88.275 Y110.190
G1 Z0.200
G1 E3.20000 F2400.000
M204 S800
G1 F1200.000
G1 X88.275 Y110.170 E0.00063
M204 S1250
G1 E-2.24000 F4200.000
;WIPE_START
G1 F5760.000
G1 X88.275 Y110.170 E0.00000
;WIPE_END
G1 E-0.96000 F4200.000
G1 Z0.400 F7200.000
G1 X90.815 Y110.190
G1 Z0.200
G1 E3.20000 F2400.000
M204 S800
G1 F1200.000
G1 X90.815 Y110.170 E0.00063
M204 S1250
G1 E-2.24000 F4200.000
;WIPE_START
G1 F5760.000
G1 X90.815 Y110.170 E0.00000
;WIPE_END
G1 E-0.96000 F4200.000
G1 Z0.400 F7200.000
G1 X93.355 Y110.190
G1 Z0.200
G1 E3.20000 F2400.000
M204 S800
G1 F1200.000
G1 X93.355 Y110.170 E0.00063
M204 S1250
G1 E-2.24000 F4200.000
;WIPE_START
G1 F5760.000
G1 X93.355 Y110.170 E0.00000
;WIPE_END
G1 E-0.96000 F4200.000
G1 Z0.400 F7200.000
G1 X95.895 Y110.190
G1 Z0.200
G1 E3.20000 F2400.000
M204 S800
G1 F1200.000
G1 X95.895 Y110.170 E0.00063
M204 S1250
G1 E-2.24000 F4200.000
;WIPE_START
G1 F5760.000
G1 X95.895 Y110.170 E0.00000
;WIPE_END
G1 E-0.96000 F4200.000
G1 Z0.400 F7200.000
G1 X98.435 Y110.190
G1 Z0.200
G1 E3.20000 F2400.000
M204 S800
G1 F1200.000
G1 X98.435 Y110.170 E0.00063
M204 S1250
G1 E-2.24000 F4200.000
;WIPE_START
G1 F5760.000
G1 X98.435 Y110.170 E0.00000
;WIPE_END
G1 E-0.96000 F4200.000
G1 Z0.400 F7200.000
G1 X100.975 Y110.190
G1 Z0.200
G1 E3.20000 F2400.000
M204 S800
G1 F1200.000
G1 X100.975 Y110.170 E0.00063
M204 S1250
G1 E-2.24000 F4200.000
;WIPE_START
G1 F5760.000
G1 X100.975 Y110.170 E0.00000
;WIPE_END
G1 E-0.96000 F4200.000
G1 Z0.400 F7200.000
G1 X103.515 Y110.190
G1 Z0.200
G1 E3.20000 F2400.000
M204 S800
G1 F1200.000
G1 X103.515 Y110.170 E0.00063
M204 S1250
G1 E-2.24000 F4200.000
;WIPE_START
G1 F5760.000
G1 X103.515 Y110.170 E0.00000
;WIPE_END
G1 E-0.96000 F4200.000
G1 Z0.400 F7200.000
G1 X106.055 Y110.190
G1 Z0.200
G1 E3.20000 F2400.000
M204 S800
G1 F1200.000
G1 X106.055 Y110.170 E0.00063
M204 S1250
G1 E-2.24000 F4200.000
;WIPE_START
G1 F5760.000
G1 X106.055 Y110.170 E0.00000
;WIPE_END
G1 E-0.96000 F4200.000
G1 Z0.400 F7200.000
G1 X108.595 Y110.190
G1 Z0.200
G1 E3.20000 F2400.000
M204 S800
G1 F1200.000
G1 X108.595 Y110.170 E0.00063
M204 S1250
G1 E-2.24000 F4200.000
;WIPE_START
G1 F5760.000
G1 X108.595 Y110.170 E0.00000
;WIPE_END
G1 E-0.96000 F4200.000
G1 Z0.400 F7200.000
G1 X68.065 Y73.960
G1 Z0.200
G1 E3.20000 F2400.000
M204 S800
G1 F1200.000
G1 X68.045 Y73.960 E0.00063
M204 S1250
G1 E-2.24000 F4200.000
;WIPE_START
G1 F5760.000
G1 X68.045 Y73.960 E0.00000
;WIPE_END
G1 E-0.96000 F4200.000
G1 Z0.400 F7200.000
G1 X68.045 Y71.420
G1 Z0.200
G1 E3.20000 F2400.000
M204 S800
G1 F1200.000
G1 X68.045 Y71.400 E0.00063
M204 S1250
; stop printing object Placa 3d v2 v1.stl id:0 copy 0
M106 S84.15
;LAYER_CHANGE
;Z:0.36
;HEIGHT:0.16
;BEFORE_LAYER_CHANGE
G92 E0.0
;0.36


G1 E-2.24000 F4200.000
;WIPE_START
G1 F5760.000
G1 X68.045 Y71.400 E0.00000
;WIPE_END
G1 E-0.96000 F4200.000
G1 Z0.400 F7200.000
;AFTER_LAYER_CHANGE
;0.36
G1 X66.117 Y69.349
G1 Z0.360
G1 E3.20000 F2400.000
;TYPE:Skirt
G1 F1192
G1 X66.751 Y68.926 E0.01956
G1 X67.426 Y68.733 E0.01801
G1 X68.379 Y68.713 E0.02444
G1 X68.915 Y68.775 E0.01385
G1 X79.140 Y71.227 E0.26976
G1 X79.780 Y71.495 E0.01780
G1 X80.330 Y71.925 E0.01791
G1 X110.825 Y108.432 E1.22032
G1 X111.089 Y108.876 E0.01326
G1 X111.250 Y109.367 E0.01326
G1 X111.297 Y110.656 E0.03308
G1 X111.083 Y111.497 E0.02225
G1 X110.579 Y112.207 E0.02235
G1 X109.835 Y112.696 E0.02283
G1 X108.964 Y112.877 E0.02283
G1 X70.181 Y112.877 E0.99496
G1 X69.258 Y112.689 E0.02417
G1 X68.478 Y112.154 E0.02427
G1 X68.021 Y111.484 E0.02081
G1 X67.816 Y110.695 E0.02091
G1 X65.358 Y74.274 E0.93648
G1 X65.363 Y70.930 E0.08579
G1 X65.453 Y70.425 E0.01317
G1 X65.647 Y69.954 E0.01307
G1 X66.080 Y69.396 E0.01811
; printing object Placa 3d v2 v1.stl id:0 copy 0
G1 E-2.24000 F4200.000
;WIPE_START
G1 F5760.000
G1 X66.751 Y68.926 E-0.56762
G1 X67.229 Y68.789 E-0.34438
;WIPE_END
G1 E-0.04800 F4200.000
G1 Z0.560 F7200.000
G1 X67.960 Y71.315
G1 Z0.360
G1 E3.20000 F2400.000
M204 S800
;TYPE:External perimeter
;WIDTH:0.45
G1 F1192
G1 X68.150 Y71.315 E0.00525
G1 X68.150 Y71.505 E0.00525
G1 X67.960 Y71.505 E0.00525
G1 X67.960 Y71.375 E0.00359
M204 S1250
G1 X68.144 Y71.364 F7200.000
G1 E-2.24000 F4200.000
;WIPE_START
G1 F5760.000
G1 X68.150 Y71.315 E-0.13802
G1 X68.150 Y71.505 E-0.13162
G1 X67.960 Y71.505 E-0.13162
G1 X67.960 Y71.375 E-0.09005
;WIPE_END
G1 E-0.46869 F4200.000
G1 Z0.560 F7200.000
G1 X67.960 Y73.855
G1 Z0.360
G1 E3.20000 F2400.000
M204 S800
G1 F1192
G1 X68.150 Y73.855 E0.00525
G1 X68.150 Y74.045 E0.00525
G1 X67.960 Y74.045 E0.00525
G1 X67.960 Y73.915 E0.00359
M204 S1250
G1 X68.144 Y73.904 F7200.000
G1 E-2.24000 F4200.000
;WIPE_START
G1 F5760.000
G1 X68.150 Y73.855 E-0.13802
G1 X68.150 Y74.045 E-0.13162
G1 X67.960 Y74.045 E-0.13162
G1 X67.960 Y73.915 E-0.09005
;WIPE_END
G1 E-0.46869 F4200.000
G1 Z0.560 F7200.000
G1 X70.410 Y110.085
G1 Z0.360
G1 E3.20000 F2400.000
M204 S800
G1 F1192
G1 X70.600 Y110.085 E0.00525
G1 X70.600 Y110.275 E0.00525
G1 X70.410 Y110.275 E0.00525
G1 X70.410 Y110.145 E0.00359
M204 S1250
G1 X70.594 Y110.134 F7200.000
G1 E-2.24000 F4200.000
;WIPE_START
G1 F5760.000
G1 X70.600 Y110.085 E-0.13802
G1 X70.600 Y110.275 E-0.13162
G1 X70.410 Y110.275 E-0.13161
G1 X70.410 Y110.145 E-0.09005
;WIPE_END
G1 E-0.46870 F4200.000
G1 Z0.560 F7200.000
G1 X72.950 Y110.145
G1 Z0.360
G1 E3.20000 F2400.000
M204 S800
M73 P1 R68
G1 F1192
G1 X72.950 Y110.085 E0.00166
G1 X73.140 Y110.085 E0.00525
G1 X73.140 Y110.275 E0.00525
G1 X72.950 Y110.275 E0.00525
G1 X72.950 Y110.205 E0.00194
M204 S1250
G1 X72.990 Y110.100 F7200.000
G1 E-2.24000 F4200.000
;WIPE_START
G1 F5760.000
G1 X72.950 Y110.085 E-0.08312
G1 X73.140 Y110.085 E-0.13162
G1 X73.140 Y110.275 E-0.13162
G1 X72.950 Y110.275 E-0.13162
G1 X72.950 Y110.205 E-0.04849
;WIPE_END
G1 E-0.43354 F4200.000
G1 Z0.560 F7200.000
G1 X75.490 Y110.205
G1 Z0.360
G1 E3.20000 F2400.000
M204 S800
G1 F1192
G1 X75.490 Y110.085 E0.00332
G1 X75.680 Y110.085 E0.00525
G1 X75.680 Y110.275 E0.00525
G1 X75.490 Y110.265 E0.00526
M204 S1250
G1 X75.530 Y110.092 F7200.000
G1 E-2.24000 F4200.000
;WIPE_START
G1 F5760.000
G1 X75.490 Y110.085 E-0.12469
G1 X75.680 Y110.085 E-0.13162
G1 X75.680 Y110.275 E-0.13162
G1 X75.490 Y110.265 E-0.13180
;WIPE_END
G1 E-0.44028 F4200.000
G1 Z0.560 F7200.000
G1 X78.030 Y110.275
G1 Z0.360
G1 E3.20000 F2400.000
M204 S800
G1 F1192
G1 X78.030 Y110.085 E0.00525
G1 X78.220 Y110.085 E0.00525
G1 X78.220 Y110.275 E0.00525
G1 X78.090 Y110.275 E0.00359
M204 S1250
G1 X78.079 Y110.091 F7200.000
G1 E-2.24000 F4200.000
;WIPE_START
G1 F5760.000
G1 X78.030 Y110.085 E-0.13802
G1 X78.220 Y110.085 E-0.13162
G1 X78.220 Y110.275 E-0.13162
G1 X78.090 Y110.275 E-0.09005
;WIPE_END
G1 E-0.46869 F4200.000
G1 Z0.560 F7200.000
G1 X80.570 Y110.275
M73 P1 R67
G1 Z0.360
G1 E3.20000 F2400.000
M204 S800
G1 F1192
G1 X80.570 Y110.085 E0.00525
G1 X80.760 Y110.085 E0.00525
G1 X80.760 Y110.275 E0.00525
G1 X80.630 Y110.275 E0.00359
M204 S1250
G1 X80.619 Y110.091 F7200.000
G1 E-2.24000 F4200.000
;WIPE_START
G1 F5760.000
G1 X80.570 Y110.085 E-0.13802
G1 X80.760 Y110.085 E-0.13162
G1 X80.760 Y110.275 E-0.13162
G1 X80.630 Y110.275 E-0.09005
;WIPE_END
G1 E-0.46869 F4200.000
G1 Z0.560 F7200.000
G1 X83.110 Y110.275
G1 Z0.360
G1 E3.20000 F2400.000
M204 S800
G1 F1192
G1 X83.110 Y110.085 E0.00525
G1 X83.300 Y110.085 E0.00525
G1 X83.300 Y110.275 E0.00525
G1 X83.170 Y110.275 E0.00359
M204 S1250
G1 X83.159 Y110.091 F7200.000
G1 E-2.24000 F4200.000
;WIPE_START
G1 F5760.000
G1 X83.110 Y110.085 E-0.13802
G1 X83.300 Y110.085 E-0.13162
G1 X83.300 Y110.275 E-0.13162
G1 X83.170 Y110.275 E-0.09005
;WIPE_END
G1 E-0.46869 F4200.000
G1 Z0.560 F7200.000
G1 X85.650 Y110.275
G1 Z0.360
G1 E3.20000 F2400.000
M204 S800
G1 F1192
G1 X85.650 Y110.085 E0.00525
G1 X85.840 Y110.085 E0.00525
G1 X85.840 Y110.275 E0.00525
G1 X85.710 Y110.275 E0.00359
M204 S1250
G1 X85.699 Y110.091 F7200.000
G1 E-2.24000 F4200.000
;WIPE_START
G1 F5760.000
G1 X85.650 Y110.085 E-0.13802
G1 X85.840 Y110.085 E-0.13162
G1 X85.840 Y110.275 E-0.13162
G1 X85.710 Y110.275 E-0.09005
;WIPE_END
G1 E-0.46869 F4200.000
G1 Z0.560 F7200.000
G1 X88.190 Y110.275
G1 Z0.360
G1 E3.20000 F2400.000
M204 S800
G1 F1192
G1 X88.190 Y110.085 E0.00525
G1 X88.380 Y110.085 E0.00525
G1 X88.380 Y110.275 E0.00525
G1 X88.250 Y110.275 E0.00359
M204 S1250
G1 X88.239 Y110.091 F7200.000
G1 E-2.24000 F4200.000
;WIPE_START
G1 F5760.000
G1 X88.190 Y110.085 E-0.13802
G1 X88.380 Y110.085 E-0.13161
G1 X88.380 Y110.275 E-0.13162
G1 X88.250 Y110.275 E-0.09005
;WIPE_END
G1 E-0.46870 F4200.000
G1 Z0.560 F7200.000
G1 X90.730 Y110.275
G1 Z0.360
G1 E3.20000 F2400.000
M204 S800
G1 F1192
G1 X90.730 Y110.085 E0.00525
G1 X90.920 Y110.085 E0.00525
G1 X90.920 Y110.275 E0.00525
G1 X90.790 Y110.275 E0.00359
M204 S1250
G1 X90.779 Y110.091 F7200.000
G1 E-2.24000 F4200.000
;WIPE_START
G1 F5760.000
G1 X90.730 Y110.085 E-0.13802
G1 X90.920 Y110.085 E-0.13162
G1 X90.920 Y110.275 E-0.13162
G1 X90.790 Y110.275 E-0.09005
;WIPE_END
G1 E-0.46869 F4200.000
G1 Z0.560 F7200.000
G1 X93.270 Y110.275
G1 Z0.360
G1 E3.20000 F2400.000
M204 S800
G1 F1192
G1 X93.270 Y110.085 E0.00525
G1 X93.460 Y110.085 E0.00525
G1 X93.460 Y110.275 E0.00525
G1 X93.330 Y110.275 E0.00359
M204 S1250
G1 X93.319 Y110.091 F7200.000
G1 E-2.24000 F4200.000
;WIPE_START
G1 F5760.000
G1 X93.270 Y110.085 E-0.13802
G1 X93.460 Y110.085 E-0.13162
G1 X93.460 Y110.275 E-0.13162
G1 X93.330 Y110.275 E-0.09005
;WIPE_END
G1 E-0.46869 F4200.000
G1 Z0.560 F7200.000
G1 X95.810 Y110.275
G1 Z0.360
G1 E3.20000 F2400.000
M204 S800
G1 F1192
G1 X95.810 Y110.085 E0.00525
G1 X96.000 Y110.085 E0.00525
G1 X96.000 Y110.275 E0.00525
G1 X95.870 Y110.275 E0.00359
M204 S1250
G1 X95.859 Y110.091 F7200.000
G1 E-2.24000 F4200.000
;WIPE_START
G1 F5760.000
G1 X95.810 Y110.085 E-0.13802
G1 X96.000 Y110.085 E-0.13162
G1 X96.000 Y110.275 E-0.13162
G1 X95.870 Y110.275 E-0.09005
;WIPE_END
G1 E-0.46869 F4200.000
G1 Z0.560 F7200.000
G1 X98.350 Y110.275
G1 Z0.360
G1 E3.20000 F2400.000
M204 S800
G1 F1192
G1 X98.350 Y110.085 E0.00525
G1 X98.540 Y110.085 E0.00525
G1 X98.540 Y110.275 E0.00525
G1 X98.410 Y110.275 E0.00359
M204 S1250
G1 X98.399 Y110.091 F7200.000
G1 E-2.24000 F4200.000
;WIPE_START
G1 F5760.000
G1 X98.350 Y110.085 E-0.13802
G1 X98.540 Y110.085 E-0.13161
G1 X98.540 Y110.275 E-0.13162
G1 X98.410 Y110.275 E-0.09005
;WIPE_END
G1 E-0.46870 F4200.000
G1 Z0.560 F7200.000
G1 X100.890 Y110.275
G1 Z0.360
G1 E3.20000 F2400.000
M204 S800
G1 F1192
G1 X100.890 Y110.085 E0.00525
G1 X101.080 Y110.085 E0.00525
G1 X101.080 Y110.275 E0.00525
G1 X100.950 Y110.275 E0.00359
M204 S1250
G1 X100.939 Y110.091 F7200.000
G1 E-2.24000 F4200.000
;WIPE_START
G1 F5760.000
G1 X100.890 Y110.085 E-0.13802
G1 X101.080 Y110.085 E-0.13161
G1 X101.080 Y110.275 E-0.13162
G1 X100.950 Y110.275 E-0.09005
;WIPE_END
G1 E-0.46870 F4200.000
G1 Z0.560 F7200.000
G1 X103.430 Y110.275
G1 Z0.360
G1 E3.20000 F2400.000
M204 S800
G1 F1192
G1 X103.430 Y110.085 E0.00525
G1 X103.620 Y110.085 E0.00525
G1 X103.620 Y110.275 E0.00525
G1 X103.490 Y110.275 E0.00359
M204 S1250
G1 X103.479 Y110.091 F7200.000
G1 E-2.24000 F4200.000
;WIPE_START
G1 F5760.000
G1 X103.430 Y110.085 E-0.13802
G1 X103.620 Y110.085 E-0.13161
G1 X103.620 Y110.275 E-0.13162
G1 X103.490 Y110.275 E-0.09005
;WIPE_END
G1 E-0.46870 F4200.000
G1 Z0.560 F7200.000
G1 X105.970 Y110.275
G1 Z0.360
G1 E3.20000 F2400.000
M204 S800
G1 F1192
G1 X105.970 Y110.085 E0.00525
G1 X106.160 Y110.085 E0.00525
G1 X106.160 Y110.275 E0.00525
G1 X106.030 Y110.275 E0.00359
M204 S1250
G1 X106.019 Y110.091 F7200.000
G1 E-2.24000 F4200.000
;WIPE_START
G1 F5760.000
G1 X105.970 Y110.085 E-0.13802
G1 X106.160 Y110.085 E-0.13161
G1 X106.160 Y110.275 E-0.13162
G1 X106.030 Y110.275 E-0.09005
;WIPE_END
G1 E-0.46870 F4200.000
G1 Z0.560 F7200.000
G1 X108.510 Y110.275
G1 Z0.360
G1 E3.20000 F2400.000
M204 S800
G1 F1192
G1 X108.510 Y110.085 E0.00525
